X:1
Z:Copyright (C) 2009
%%score { 1 | 2 } { 3 | 4 } { 5 | 6 } { 7 | 8 } 9 { 10 | 11 } { 12 | 13 } { 14 | 15 } { 16 | 17 } { 18 | 19 } { 20 | 21 } { 22 | 23 } { 24 | 25 } 26
L:1/4
Q:1/4=210
M:4/4
I:linebreak $
K:F
V:1 treble nm="Main Melody 2"
V:2 bass 
V:3 treble nm="Main Melody 4"
V:4 bass 
V:5 treble nm="Base 1"
V:6 bass 
V:7 treble nm="Base 3"
V:8 bass 
V:9 bass nm="Base 4"
V:10 treble nm="Chord 2"
V:11 bass 
V:12 treble nm="Chord 4"
V:13 bass 
V:14 treble nm="Other 1"
V:15 bass 
V:16 treble nm="Other 3"
V:17 bass 
V:18 treble nm="Other 5"
V:19 bass 
V:20 treble nm="Other 7"
V:21 bass 
V:22 treble nm="Other 9"
V:23 bass 
V:24 treble nm="Other 11"
V:25 bass 
V:26 bass nm="Other 12"
V:1
 z z2 ^c | [Ad]4- | [Ad]2- [Ad] [Ad] | [B_e]4- |$ [Be]2- [Be] [B_e] | [cf]4- | [cf]2- [cf] [cf] | %7
 [B_e]4 | [cf]2 [B_eb_e']2 |$ A- [FA] ^G- [EG] | =B [_AB-] [G-B] [G_B] | A F ^G E | =B [_AB] G z | %13
 A- [FA] z E |$ =B _A G _B | A F ^G E | =B [_AB] G z | [da] [Af] [^c^g] [^Ge] | %18
 [e=b] [=Be^gb] [_B=g] [_e_b] |$ A, F, ^G, E, | =B, [_A,B,] G, z | [da] [Af] [^c^g] [^Ge] | %22
 [e=b] [=Be^gb] [_B=g] [_e_b] |$ A, F, ^G, E, | =B, [_A,B,] G, z | =B G _B _G | _d [Bd] A c |$ %27
 =B G _B _G | _d [Bd] A z | a f ^g e | =b [_ab] g _b |$ A F ^G G | _c [_Ac] G [F^FGA] | %33
 [^DEd] a e a | f [fg] [ga] =b |$ d' [ad'] [e'f'] [d'e'f'] | [ac'] [gc'] [f-a] f | [d^de] a e a | %38
 f [fg] [ga] [d'^f'a'=b'] |$ d' [ad'] [e'f'] [d'e'f'] | [a-c'd'-] [ad']2 z | %41
 [d'd''-] [a'd''] e' a' | f' [f'g'] [g'a'] =b' |$ d'' [a'd''] [e''f''] [d''e''f''] | %44
 [a'c''] [g'c''] [f'-a'] f' | [d'^d'e'] a' e' a' | f' [f'g'] [g'a'] [=b'c''d''e''f''g''a''=b''] |$ %47
 d'' [a'd''] [e''f''] [d''e''f''] | [f'-a'-c''d''-] [f'a'd'']2 z | [dfa] [Adf] [Adfa] [Adfa] | %50
 [ABd_efgb] z [Begb] [Begb] |$ [dfa] [Adf] [Adfa] [Adfa] | [A^cdefgb] z [cegb] [cegb] | %53
 [dfa] [Adf] [Adfa] [Adfa] | [ABd_efgb] z [Begb] [Begb] |$ [dfa] [Adf] [Adfa] [Adfa] | %56
 [A^cdefgb] z [cegb] [cegb] | [Bdf] [FBd] [FBdf] [FBdf] | [FGBcdeg] z [Gceg] [Gceg] | %59
 [Adf] [FAd] [FAdf] [FAdf] |$ [FGAB^cdeg] z [GBceg] [GBceg] | [dfa] [Adf] [Adfa] [Adfa] | %62
 [ABd_efgb] z [Begb] [Begb] | [dfa] [Adf] [Adfa] [Adfa] |$ [CEAdf] z [_A,_DF] [=A,CE] | %65
 [C_Dfa] f [e^g] e | =b [_ab] g _b | z4 |$ z4 | [fa] f [e^g] e | =b [_ab] g _b | z4 |$ z4 | %73
 [fa] f [e^g] e | =b [_ab] g _b | z4 |$ z4 | [fa] f [e^g] e | =b [_ab] g _b | a f b ^f |$ %80
 =b [^gb] b ^c' | d a e a | f [fg] [ga] [b_c'] | d' [ae'] [e'f'] [d'e'f'] |$ [ac'] [gc'] [fa] z | %85
 [d^de] a e g | f [fg] [ga] [=Bcdefga=bd'^f'a'=b'] | d' [ad'] [e'f'] [d'e'f'] |$ %88
 [a-c'd'-] [ad']2 z | d' a' e' a' | f' [f'g'] [g'a'] =b' | d'' [a'd''] [e''f''] [d''e''f''] |$ %92
 [a'c''] [g'c''] [f'-a'] f' | [d'^d'e'] [f'a'] e' a' | %94
 f' [f'g'] [g'a'] [=b=b'c''d''e''f''g''a''=b''] |$ d'' [a'd''] [e''f''] [d''e''f''] | %96
 [f'a'c''d''-] [f'a'd''-] [f'a'd''-] [f'a'd''] | [f'a'] z z2 | z4 |$ z4 | z4 | A F B ^F | %102
 =B [GB] c ^G | ^c A d B |$ _e [=Be] =e c | A F B ^F | =B [GB] c ^G | ^c A d B |$ _e [=Be] =e c | %109
 f ^c ^f d | g [^dg] ^g e |$ a f b ^f | =b [gb] _a c' |$ d' a' e' a' | f' [f'g'] [g'a'] =b' | %115
 d'' [a'e''] [e''f''] [d''e''f''] | [a'c''] [g'c''] [f'-a'] f' | [d'^d'e'] a' e' g' |$ %118
 f' [f'g'] [g'a'] [=b'c''d''e''f''g''a''=b''] | d'' [a'd''] [e''f''] [d''e''f''] | %120
 [c''d''-] d''2 z | d' a' e' a' |$ f' [f'g'] [g'a'] =b' | d'' [a'd''] [e''f''] [d''e''f''] | %124
 [a'c''] [g'c''] [f'-a'] f' | [d'^d'e'] a' e' a' |$ f' [f'g'] [g'a'] [=b'c''d''e''f''g''a''=b''] | %127
 d'' [a'd''] [e''f''] [d''e''f''] |$ [a'-c''d''-] [a'd'']2 z | _e' b' f' b' |$ %130
 _g' [g'_a'] [a'b'] c'' | _e'' [b'e''] [f''_g''] [e''f''g''] | [b'_d''] [_a'd''] [_g'-b'] g' |$ %133
 [^d'e'f'] b' f' b' | _g' [g'_a'] [a'b'] [c''_d''_e''f''_g''_a''b''=b''c'''-] |$ %135
 [_e''c'''] [b'e''] [f''_g''] [e''f''g''] | [_g'b'_d''_e''-] [g'b'e''] [g'b'] [g'b'] |$ %137
 [_e'_g'b'] b' f' z | _g' [g'_a'] a' c'' | _e'' [b'e''] [f''_g''] [e''f''g''] |$ %140
 [b'_d''] [_a'd''] b' z | [^d'e'f'] b' f' b' |$ %142
 _g' [g'_a'] a' [c''_d''_e''f''_g''_a''b''=b''c'''-] | [_e''c'''] [b'e''] [f''_g''] [e''f''g''] |$ %144
 [_g'b'_d''_e''-] [g'b'e''-] [g'b'e''-] [g'b'e''] | [_e_gb_g'b'] [Beg] [Begb] [Begb] | %146
 [B=B_e=e_g^g=b] z [Begb] [Begb] |$ [_e_gb] [_GBeg] [Begb] [GBegb] | %148
 [Bd_ef_g_a=b] z [df^gb] [dfg_c'] | [_e_gb] [_GBeg] [Begb] [GBegb] | %150
 [B=B_e=e_g^g=b] z [Begb] [Begb] |$ [_e_gb] [Beg] [Begb] [Begb] | [Bd_ef_g_a=b] z [df^gb] [dfgb] | %153
 [=B^d^f] [^FBd] [FBdf] [FBdf] | [_G_A_c_d_ef_a] z [Adfa] [Adfa] |$ [B_e_g] [_GBe] [GBeg] [GBeg] | %156
 [_G^GB=Bd_ef^g] z [_A_cf_a] [GBdfg] | [_e_gb] [Beg] [Begb] [Begb] | %158
 [B=B_e=e_g^g=b] z [Begb] [Begb] |$ [_e_gb] [Beg] [Begb] [Begb] | [_DF^GB_e_g] z [=D^F] [B,^C=F] | %161
 z4 |$ z [C^CD^DE] [F^FG^GAB=Bc] [^cd^def^fg^g] | %163
 [ab=bc'^c'd'^d'e'] [f'^f'g'^g'a'b'=b'c''] [^c''d''^d''e''f''^f''g''^g''] [a''b''=b''c'''] | %164
 z2 [f''^f''g''^g''a''b''=b''c''']2- | [f''f''g''g''a''b''b''c''']4- | %166
 [f''f''g''g''a''b''b''c''']4- |$ [f''f''g''g''a''b''b''c''']4 |[Q:1/4=60] z4 | d' a' e' a' | %170
 f' g' [g'a'] =b' | d'' [b'e''] [e''f''] [d''e''f''] | %172
 [d'-f'-a'-^c''d''-] [d'f'a'd'']2- [d'-f'a'd''][Q:1/4=69][Q:1/4=67][Q:1/4=65][Q:1/4=62][Q:1/4=60][Q:1/4=58][Q:1/4=56][Q:1/4=53][Q:1/4=51][Q:1/4=49][Q:1/4=46][Q:1/4=44][Q:1/4=20] |$ %173
 d' z z2[Q:1/4=90][Q:1/4=20] |] %174
V:2
 z4 | [A,D]4- | [A,D]2- [A,D] [A,D] | [^A,^D]4- |$ [A,D]2- [A,D] [^A,^D] | [=C^E]4- | %6
 [CE]2- [CE] [=C=F] | [^A,^D]4 | [=C=F]2 [_B,_E]2 |$ z4 | z4 | A, =F, ^G, E, | =B, ^G, =G, z | %13
 A, =F, ^G, E, |$ =B, [^G,B,] =G, _B, | A, =F, ^G, E, | =B, z =G, z | [A,=F] [=F,D] [^G,E] [E,^C] | %18
 [=B,^G] [^G,B,EG] [=G,_E] [_B,=G] |$ z4 | z4 | [A,=F] [=F,D] [^G,E] [E,^C] | %22
 [=B,^G] [^G,B,EG] [=G,_E] [_B,=G] |$ z4 | z4 | =B, =G, ^A, ^F, | ^C [_B,C] A, =C |$ =G E ^F ^D | %28
 ^A [^FA] =F z | =F D E ^C | ^G E ^D =G |$ =F D E E | ^G [EG] ^D z | D- [A,DA] E A | %34
 =F [F=G] [GA] =B |$ d [Ad] [e=f] [def] | [A=c] [=Gc] [=F-A] F | [D^DE] [A,A] E A | %38
 =F [F=G] [GA] [=B=cde=f=ga=b] |$ a [=fa] [=c'd'] [_bc'd'] | [=f-=g] f2 z | d a e a | %42
 =f [f=g] [ga] =b |$ d' [ad'] [e'=f'] [d'e'f'] | [a=c'] [=gc'] a z | [d^de] a e a | %46
 =f [f=g] [ga] [=b=c'd'e'=f'^f'=g'a'=b'] |$ d' [ad'] [e'=f'] [d'e'f'] | %48
 [=f-a-=c'd'-] [f-ad'-] [fd'] z | [d'=f'a'] [d'f'] [d'f'a'] [d'f'a'] | %50
 [d'_e'=f'=g'_b'] z [g'b'] [g'b'] |$ [d'=f'a'] [d'f'] [d'f'a'] [d'f'a'] | %52
 [d'e'=f'=g'_b'] z [g'b'] [g'b'] | [d'=f'a'] [d'f'] [d'f'a'] [d'f'a'] | %54
 [d'_e'=f'=g'^a'] z [g'_b'] [g'b'] |$ [d'=f'a'] [d'f'] [d'f'a'] [d'f'a'] | %56
 [d'e'=f'=g'_b'] z [^^f'^a'] [g'b'] | [_bd'=f'] [bd'] [bd'f'] [bd'f'] | [_b=c'd'e'=g'] z g' g' | %59
 [ad'=f'] [ad'] [ad'f'] [ad'f'] |$ [a^c'd'e'=g'] z g' g' | [d'=f'a'] [d'f'] [d'f'a'] [d'f'a'] | %62
 [d'_e'=f'=g'_b'] z b' b' | [d'=f'a'] [d'f'] [d'f'a'] [d'f'a'] |$ %64
 [d'=f'=g'=c''=g''] z [^g'^c''^g''] [a'=c''a''] | A, =F, ^G, E, | =B, [^G,B,] ^^F, ^A, | %67
 D, A,, ^C, ^G,, |$ E, [=B,,E,] ^A,, z | A, =F, ^G, E, | =B, [^G,B,] ^^F, ^A, | D, A,, ^C, ^G,, |$ %72
 E, [=B,,E,] ^A,, z | A, =F, ^G, E, | =B, [^G,B,] =G, _B, | D, A,, ^C, ^G,, |$ E, [=B,,E,] ^A,, z | %77
 A, =F, ^G, E, | =B, [^G,B,] ^^F, ^A, | A, =F, _B, ^F, |$ =B, [^G,B,] B, ^C | D- [DA] E A | %82
 =F [F=G] [GA] [^A=B] | d [Ae] [e=f] [def] |$ [A=c] [=Gc] [=F-A] F | [D-^DE] [DA] E =G | %86
 =F [F=G] [GA] [=B,=CDEFGA=B=cde] | a [=fa] [=c'd'] [_bc'd'] |$ [=f-=g] f2 z | a [d'=f'] ^c' e' | %90
 ^c' e' [e'=f'] ^f' | a' [=f'a'] [=b'=c''] [a'b'c''] |$ [e'=g'] [d'g'] [=c'-e'] c' | %93
 [a^a=b] d' ^c' e' | =c' [c'e'] [e'=f'] [=bc'd'e'f'=g'a'=b'] |$ a' [=f'a'] [=c''d''] [_b'c''d''] | %96
 [ad'=g'] [ad'] [ad'] [ad'] | [A,ad'] =F, _B, ^F, | =B, [^^F,B,] =C ^G, |$ ^C A, D ^A, | %100
 ^D [=B,D] E =C | A, =F, _B, ^F, | =B, [^^F,B,] =C ^G, | ^C A, D ^A, |$ ^D [=B,D] E =C | %105
 A, =F, _B, ^F, | =B, [^^F,B,] =C ^G, | ^C A, D ^A, |$ ^D [=B,D] E =C | =F ^C ^F D | %110
 =G [^DG] ^G E |$ A =F _B ^F | =B [=GB] ^G =c |$ d a e a | =f [f=g] [ga] =b | %115
 d' [ae'] [e'=f'] [d'e'f'] | [a=c'] [=gc'] [=f-a] f | [d^de] a e =g |$ %118
 =f [f=g] [ga] [=b=c'd'e'=f'=g'a'=b'] | a' [=f'a'] [=c''d''] [_b'c''d''] | [=g'a'-] a'2 z | %121
 d a e a |$ =f [f=g] [ga] =b | d' [ad'] [e'=f'] [d'e'f'] | [a=c'] [=gc'] [=fa] z | [d^de] a e a |$ %126
 =f [f=g] [ga] [=b=c'd'e'=f'=g'a'=b'] | a' [=f'a'] [=c''d''] [_b'c''d''] |$ [=f'-=g'] f'2 z | %129
 ^d ^a =f a |$ ^f [f^g] [g^a] =c' | ^d' [^ad'] [=f'^f'] [d'=f'^f'] | [^a^c'] [^gc'] [^f-a] f |$ %133
 [^de^e] ^a e a | ^f [f^g] [g^a] [=c'^c'^d'=f'^f'^g'^a'=c''] |$ ^d' [^ad'] [=f'^f'] [d'=f'^f'] | %136
 [^a^c'^d'] [ad'] [ad'] [ad'] |$ [^d^a^d'] a =f a | ^f [f^g] g =c' | %139
 ^d' [^ad'] [=f'^f'] [d'=f'^f'] |$ [^a^c'] [^gc'] ^f2 | [^de^e] z e z |$ %142
 ^f [f^g] [g^a] [=c'^c'=f'^f'^g'^a'=c''] | ^d' [^ad'] [=f'^f'] [d'=f'^f'] |$ %144
 [^a^c'^d'] [ad'] [ad'] [ad'] | [^a^d'^f'^a'] [d'f'] [d'f'a'] [d'f'a'] | %146
 [^d'e'^f'^g'=b'] z [e'g'b'] [e'g'b'] |$ [^d'^f'^a'] [d'f'] [d'f'a'] [d'f'a'] | %148
 [^d'^e'^f'^g'=b'] z [e'g'b'] [e'g'b'] | [^d'^f'^a'] [d'f'] [d'f'a'] [d'f'a'] | %150
 [^d'e'^f'^g'=b'] z [e'g'b'] [e'g'b'] |$ [^d'^f'^a'] [d'f'] [d'f'a'] [d'f'a'] | %152
 [^d'=f'^f'^g'=b'] z [^e'g'b'] [e'g'b'] | [=b^d'^f'] [bd'] [bd'f'] [bd'f'] | %154
 [=b^c'^d'^e'^g'] z [c'=f'g'] [c'f'g'] |$ [^a^d'^f'] [ad'] [ad'f'] [ad'f'] | %156
 [^ad'^d'=f'^g'] z [=d'^e'g'] [d'e'g'] | [^d'^f'^a'] [d'f'] [d'f'a'] [d'f'a'] | %158
 [^d'e'^f'^g'=b'] z [e'g'b'] [e'g'b'] |$ [^d'^f'^a'] [d'f'] [d'f'a'] [d'f'a'] | %160
 [^d'^f'^g'^c''^g''] z [a'd''a''] [^a'c''^a''] | z4 |$ z4 | z4 | z2 [=c''^c''d''^d''e'']2- | %165
 [c''c''d''d''e'']4- | [c''c''d''d''e'']4- |$ [c''c''d''d''e'']4 | x4 | x4 | x4 | x4 | x4 |$ x4 |] %174
V:3
[K:E] z4 | [A,,-^^C,] A,,2- A,,- | A,,2- A,, [A,,^^C,] | [^A,,-D,] A,,2- A,,- |$ %4
 A,,2- A,, [^A,,D,] | [=C,-^E,] C,2- C,- | C,2- C, [=C,=F,] | [^A,,-D,] A,,2- A,, | %8
 [^B,,-=F,] B,, [^A,,-D,] A,, |$ z4 | z4 | z4 | z4 | z4 |$ z4 | z4 | z4 | z4 | z4 |$ z4 | z4 | z4 | %22
 z4 |$ z4 | z4 | ^^F, E, ^F, D, | ^A, [F,A,] ^E, =A, |$ B, ^^F, ^A, ^F, | C [_B,C] A, z | %29
 A, =F, G, E, | B, [G,B,] ^^F, ^A, |$ ^^C A, ^C C | E [B,E] ^A, z | z4 | z4 |$ z4 | z4 | z4 | z4 |$ %39
 ^^c [Ac] [e^e] [c=e=f] | [^B^^c-] c2 z | ^^C A E A | E =F [^^FA] z |$ ^^c [Ac] e [ce=f] | %44
 [A^B] [^^FB] [=FA] z | [^^CDE] A E A | ^E ^^F [FA] [B^B^^ce^e^^fab] |$ a [=fa] [^b^^c'] [^abc'] | %48
 ^^c2- c z | z4 | z4 |$ z4 | z4 | z4 | z4 |$ z4 | z4 | z4 | z4 | z4 |$ z4 | z4 | z4 | z4 |$ %64
 [^^F^be'] z [B,Gg=bc'^e'] [Aa=c'=e'] | z4 | z4 | z4 |$ z4 | z4 | z4 | z4 |$ z4 | z4 | z4 | z4 |$ %76
 z4 | z4 | z4 | z4 |$ z4 | z4 | z4 | z4 |$ z4 | z4 | z4 | z4 |$ z4 | ^^c [ca] e [ea] | %90
 ^e [e^^f] f [^fb] | ^^c' [ac'] [e'^e'] [c'=e'=f'] |$ [a^b] [^^fb] [=f-a] f | [^^cde] [ca] e [ea] | %94
 ^e [e^^f] [fa] [B^B^^c=e^efab^b^^c'e'^e'^^f'a'] |$ ^^c' [a=d'] [e'=f'] [c'e'f'] | %96
 [^^c=f^b] [=df] [df] [d^e] | [A,,^^c^e] =F,, _B,, ^F,, | B,, [^^F,,B,,] ^B,, G,, |$ %99
 C, A,, ^^C, ^A,, | D, [B,,D,] E, =C, | A,, =F,, _B,, ^F,, | B,, [^^F,,B,,] ^B,, G,, | %103
 C, A,, ^^C, ^A,, |$ D, [B,,D,] E, =C, | A,, =F,, _B,, ^F,, | B,, [^^F,,B,,] ^B,, G,, | %107
 C, A,, ^^C, ^A,, |$ D, [B,,D,] E, =C, | ^E, C, F, ^^C, | ^^F, [D,F,] G, E, |$ A, =F, _B, ^F, | %112
 B, [^^F,B,] G, ^B, |$ ^^C A E A | ^E [E^^F] [FA] B | ^^c [Ae] [e=f] [cef] | %116
 [A^B] [^^FB] [=F-A] F | [^^CDE] A E ^^F |$ ^E [E^^F] [FA] [B^B^^ce^e^^fab] | %119
 ^^c' [ac'] [e'^e'] [c'=e'=f'] | [^b^^c'-] c'2 z | ^^C A E A |$ ^E [E^^F] [FA] B | %123
 ^^c [Ac] [e^e] [c=e=f] | [A^B] [^^FB] [=FA] z | [^^CDE] A E A |$ ^E [E^^F] [FA] [B^B^^ce^e^^fab] | %127
 ^^c' [ac'] [e'^e'] [c'=e'=f'] |$ [^b^^c'-] c'2 z | D ^A =F A |$ F [FG] [G^A] =c | %131
 d [^Ad] [=f^f] [d=f^f] | [^Ac] [Gc] [F-A] F |$ [DE^E] ^A E A | F [FG] [G^A] [=c^cd=f^fg^a=c'] |$ %135
 ^a [fa] [c'd'] [bc'd'] | [dfg] f f f |$ f ^A =F A | F [FG] [G^A] =c | d [^Ad] =f [df^f] |$ %140
 [^Ac] [Gc] [F-A] F | [E^E] ^A E A |$ F [FG] [G^A] [=c^cd=f^fg^a=c'] | ^a [fa] [c'd'] [bc'd'] |$ %144
 [d-fg] [d-f] [d-f] [df] | f z z2 | z4 |$ z4 | z4 | z4 | z4 |$ z4 | z4 | z4 | z4 |$ z4 | z4 | z4 | %158
 z4 |$ z4 | [Gc'=f'] z [Aa^^c'^f'] [^E^A^a^c'^e'] | z4 |$ z4 | z4 | z2 [^e'f'^^f'g'a'^a'b']2- | %165
 [e'f'f'g'a'a'b']4- | [e'f'f'g'a'a'b']4- |$ [e'f'f'g'a'a'b']4 | x4 | x4 | x4 | x4 | x4 |$ x4 |] %174
V:4
[K:E] z4 | A,,,4- | A,,,2- A,,, [A,,,^^C,,] | ^A,,,4- |$ A,,,2- A,,, [^A,,,D,,] | =C,,4- | %6
 C,,2- C,, [=C,,=F,,] | _B,,,4 | =C,,2 _B,,,2 |$ z4 | z4 | z4 | z4 | z4 |$ z4 | z4 | z4 | z4 | %18
 z4 |$ z4 | z4 | z4 | z4 |$ z4 | z4 | z4 | z4 |$ z4 | z4 | z4 | z4 |$ A, =F, G, E, | %32
 B, [G,B,] ^^F, z | A, =F z F | =C z2 F |$ _B A [^B^^c] z | ^E =E ^^C z | z ^E z =E | %38
 ^B, z2 [^^CF] |$ _B A [^B^^c] z | A2 ^^C [C^E] | [^^C^E^^FAc] z z2 | z4 |$ z4 | z4 | z4 | %46
 z z2 [^e'f'g'^a'b'c''=d''^d''e''=f''] |$ [^^c^^f'a'_b'c''] [Ac] [Ae^e] [c=e=f] | ^B z2 [^^CE^E] | %49
 [=D^EA] z z2 | z4 |$ z4 | z4 | z4 | z4 |$ z4 | z4 | z4 | z4 | z4 |$ z4 | z4 | z4 | z4 |$ z4 | z4 | %66
 z4 | A, ^E, G, =E, |$ B, [G,B,] ^^F, z | z4 | z4 | A, ^E, G, =E, |$ B, [G,B,] ^^F, z | z4 | z4 | %75
 A, ^E, G, =E, |$ B, [G,B,] ^^F, z | z4 | z4 | z4 |$ z4 | z4 | z4 | z4 |$ z4 | z4 | z4 | %87
 ^^c [Ac] [e^e] [c=e=f] |$ [^B^^c-] c2 z | ^^C A E [EA] | =F [^E^^F] [FA] [^FB] | %91
 ^^c [Ac] [e^e] [c=e=f] |$ [A^B] [^^FB] [=FA] z | [^^CDE] A E [EA] | %94
 ^E [E^^F] [FA] [B,^B,^^C=E^EFAB^B^^ce^e^^fab] |$ a [=fa] [^b^^c'] [^abc'] | [A^^f] [=FA] [FA] A | %97
 A z z2 | z4 |$ z4 | z4 | =D ^A, ^D B, | E [^B,E] ^E C | F =D =G ^D |$ G [EG] A ^E | ^^C ^A, D B, | %106
 E [^B,E] ^E C | F =D =G ^D |$ G [EG] A =F | ^A F B ^^F | ^B [GB] c A |$ =d ^A ^d B | %112
 e [^Be] c ^e |$ z4 | z4 | z4 | z4 | z4 |$ z z2 [=d'f'a'^^c''f''a''] | a [=fa] [^b^^c'] [^abc'] | %120
 [^e-^^fa-] [ea]2 z | z4 |$ z4 | z4 | z4 | z4 |$ %126
 z z2 [^B,^^CE^E^^FAB^B^^ce^e^^fab=c'e'^e'^^f'a'b'] | a [=fa] [^b^^c'] [^abc'] |$ %128
 [^e-^^fa-] [ea]2 z | z4 |$ z4 | z4 | z4 |$ z4 | z z2 [d'=g'^a'-d''^^f''^a''] |$ %135
 [da'] ^A [=f^f] [d=f^f] | [F^Ac] [FA] [FA] z |$ z4 | z4 | z4 |$ z4 | z4 |$ z z2 d' | %143
 d ^A [=f^f] [d=f^f] |$ [F^Ac] [FA] [FA] z | z4 | z4 |$ z4 | z4 | z4 | z4 |$ z4 | z4 | z4 | z4 |$ %155
 z4 | z4 | z4 | z4 |$ z4 | z4 | z4 |$ z4 | z4 | z2 [=c'^c'^^c'd'e']2- | [c'c'c'd'e']4- | %166
 [c'c'c'd'e']4- |$ [c'c'c'd'e']4 | x4 | x4 | x4 | x4 | x4 |$ x4 |] %174
V:5
[K:Bb] z4 | D,,,4- | D,,,2- D,,, D,,, | E,,,4- |$ E,,,2- E,,, E,,, | F,,,4 | F,,,2- F,,, F,,, | %7
 E,,,2 E,,,2 | F,,, F,,, E,,, E,,, |$ z4 | z4 | z4 | z4 | z4 |$ z4 | z4 | z4 | z4 | z4 |$ z4 | z4 | %21
 z4 | z4 |$ z4 | z4 | z4 | z4 |$ z4 | z4 | z4 | z4 |$ z4 | z4 | z4 | z4 |$ z4 | z4 | z4 | z4 |$ %39
 z4 | z4 | z4 | z4 |$ z4 | z4 | z4 | z4 |$ z4 | z4 | z4 | z4 |$ z4 | z4 | z4 | z4 |$ z4 | z4 | z4 | %58
 z4 | z4 |$ z4 | z4 | z4 | z4 |$ z4 | z4 | z4 | z4 |$ z4 | z4 | z4 | z4 |$ z4 | z4 | z4 | z4 |$ %76
 z4 | z4 | z4 | z4 |$ z4 | z4 | z4 | z4 |$ z4 | z4 | z4 | z4 |$ z4 | z4 | z4 | z4 |$ z4 | z4 | %94
 z z2 [d'_g'd''_g''] |$ d [Ad] [=ef] [def] | [A,-Dc] [A,D] D D | D z z2 | z4 |$ z4 | z4 | z4 | z4 | %103
 z4 |$ z4 | z4 | z4 | z4 |$ z4 | z4 | z4 |$ z4 | z4 |$ B, F C F | D D D G | B c [cd] z | F =E D z | %117
 B, F C =E |$ D D D [DG] | [Bd] [Ad] [cd=ef] [def] | [cd-] d2 z | z4 |$ z4 | z4 | z4 | z4 |$ %126
 z z2 [d'_g'a'] | d [Ad] [=ef] [def] |$ [cd] z z2 | z4 |$ z4 | z4 | z4 |$ z4 | %134
 z2 [A,,,,B,,,,_C,,,=C,,,_D,,,=D,,,E,,,=E,,,F,,,_G,,,=G,,,^G,,,A,,,B,,,=B,,,C,,^C,,D,,E,,=E,,F,,_G,,=G,,_A,,=A,,B,,=B,,C,^C,D,E,=E,F,_G,=G,^G,A,B,=B,C^CDE=EF_G=G] [^GAB=Bc^cde=ef_g=g_a=ab_c'=c'_d'=d'e'=e'f'_g'=g'^g'a'b'_c''=c''^c''d''e''_f''=f''_g''=g''^g''a''b''] |$ %135
 z4 | [B,E-] [_G,B,E-] [G,B,E-] [G,B,E] |$ [_G,B,] z z2 | z4 | z4 |$ z4 | z4 |$ %142
 z2 [A,,,,B,,,,_C,,,=C,,,_D,,,=D,,,E,,,=E,,,F,,,_G,,,=G,,,^G,,,A,,,B,,,=B,,,C,,^C,,D,,E,,=E,,F,,_G,,=G,,_A,,=A,,B,,=B,,C,^C,D,E,=E,F,_G,=G,^G,A,B,=B,C^CDE=EF_G=G] [^GAB=Bc^cde=ef_g=g_a=ab_c'=c'_d'=d'e'=e'f'_g'=g'^g'a'b'_c''=c''^c''d''e''_f''=f''_g''=g''^g''a''b''] | %143
 z4 |$ B, [_G,B,] [G,B,] G, | _G, z z2 | z4 |$ z4 | z4 | z4 | z4 |$ z4 | z4 | z4 | z4 |$ z4 | z4 | %157
 z4 | z4 |$ z4 | z4 | z4 |$ z4 | z4 | z2 [f_g=g^gab=b]2- | [fgggabb]4- | [fgggabb]4- |$ %167
 [fgggabb]4 | x4 | x4 | x4 | x4 | x4 |$ x4 |] %174
V:6
[K:Bb] z4 | D,, [D,,D,-] [D,,D,] [D,,D,] | D,, [D,,D,-] [D,,D,] [D,,D,] | %3
 [^D,,D,] [D,,^D,-] [D,,D,] [D,,D,] |$ ^D,, [D,,_E,-] [_E,,E,] [E,,E,] | %5
 [F,,_E,] [F,,F,-] [F,,F,] [F,,F,] | F,, [F,,F,-] [F,,F,] [F,,F,] | %7
 [^D,,F,] [D,,^D,-] [_E,,D,] [E,,_E,-] | [_E,,F,,E,] [F,,F,] [^D,,F,,] [E,,_E,] |$ %9
 [D,,_E,,] A,, ^C,, ^G,, | =E,, =B,, ^D,, ^A,, | D, [D,A,] [^C,A,] [C,^G,] | %12
 [=E,^G,] [E,=B,] [^D,B,] [D,^A,] | [D,,^A,] A,, ^C,, ^G,, |$ =E,, =B,, ^D,, ^A,, | %15
 D, [D,A,] [^C,A,] [C,^G,] | =E, [^G,=B,] [^A,B,] =G, | D,, [D,,A,,D,] [^C,,A,,D,] [C,,^G,,^C,] | %18
 [=E,,^G,,^C,] [E,,=B,,=E,] [^D,,B,,E,] [_E,,^A,,^D,] |$ [_B,,D,_E,] [D,A,] [^C,A,] [C,^G,] | %20
 [=E,^G,] [E,=B,] [^D,B,] [D,^A,] | [D,,_B,] [D,,A,,D,] [^C,,A,,D,] [C,,^G,,^C,] | %22
 [=E,,^G,,^C,] [E,,=B,,=E,] [^D,,B,,E,] [D,,^A,,^D,] |$ [^A,,D,_E,] [D,A,] [^C,A,] [C,^G,] | %24
 [=E,^G,] [E,=B,] [^D,B,] [D,^A,] | [=E,,^A,] [E,,=B,,] [^D,,B,,] [D,,^A,,] | %26
 [^F,,^A,,] [_G,,^C,] [=F,,G,,_D,] [F,,=C,] |$ [F,,C,=E,] [E,=B,] [^D,B,] [D,^A,] | %28
 [_G,_B,] [G,_D] [F,D] [F,C] | [D,,C] [D,,A,,] [^C,,A,,] [C,,^G,,] | %30
 [=E,,^G,,] [E,,=B,,] [^D,,B,,] [D,,^A,,] |$ [_B,,D,] [D,A,] [^C,A,] [C,^G,] | %32
 [=E,^G,] [E,=B,] [_E,=G,B,] [F,^F,G,_A,] | [D,,-D,-^D,=E,] [D,,D,] [^C,,^C,]2 | %34
 [C,,-C,] C,, [=B,,,-=B,,] B,,, |$ [^A,,,^A,,]2 [C,,C,]2 | %36
 [D,,D,] [=E,,D,=E,] [F,,E,F,] [D,,D,F,] | D,,2 [^C,,^C,]2 | [C,,-C,] C,, [=B,,,-=B,,] B,,, |$ %39
 [^A,,,-^A,,] A,,, [C,,C,]2 | [D,,D,] [=E,,D,=E,] [F,,E,F,] [D,,D,F,] | %41
 [D,,D,] [D,,D,] [G,,,D,] G,,, | [A,,,C,] A,,, [=B,,,D,] [B,,,=B,,] |$ %43
 [^A,,,=B,,] A,,, [C,,^A,,] C,, | [D,,C,] [=E,,D,] [F,,=E,] [D,,F,] | D,, [D,,D,] [G,,,D,] G,,, | %46
 [A,,,C,] A,,, [=B,,,D,] [B,,,=B,,] |$ [^A,,,=B,,] A,,, [C,,^A,,] C,, | [C,D,] z z2 | %49
 [D,,,D,,D,] [D,,,D,,A,,F,] [D,,,D,,A,,F,] [D,,,D,,A,,F,] | %50
 [_E,,,_E,,A,,F,] [E,,,E,,_B,,G,] [E,,,E,,B,,G,] [E,,,E,,B,,G,] |$ %51
 [D,,,D,,_B,,G,] [D,,,D,,A,,F,] [D,,,D,,A,,F,] [D,,,D,,A,,F,] | %52
 [^C,,,^C,,A,,F,] [C,,,C,,^A,,=E,] [C,,,C,,A,,E,] [C,,,C,,A,,E,] | %53
 [D,,,D,,_B,,=E,] [D,,,D,,A,,F,] [D,,,D,,A,,F,] [D,,,D,,A,,F,] | %54
 [_E,,,_E,,A,,F,] [E,,,E,,_B,,G,] [E,,,E,,B,,G,] [E,,,E,,B,,G,] |$ %55
 [D,,,D,,_B,,G,] [D,,,D,,A,,F,] [D,,,D,,A,,F,] [D,,,D,,A,,F,] | %56
 [^C,,,^C,,A,,F,] [C,,,C,,^A,,=E,] [C,,,C,,A,,E,] [C,,,C,,A,,E,] | %57
 [_B,,,,_B,,,_B,,=E,] [B,,,,B,,,F,,D,] [B,,,,B,,,F,,D,] [B,,,,B,,,F,,D,] | %58
 [C,,,C,,F,,D,] [C,,,C,,G,,=E,] [C,,,C,,G,,E,] [C,,,C,,G,,E,] | %59
 [A,,,,A,,,G,,=E,] [A,,,,A,,,F,,D,] [A,,,,A,,,F,,D,] [A,,,,A,,,F,,D,] |$ %60
 [^C,,,^C,,F,,D,] [C,,,C,,G,,=E,] [C,,,C,,G,,E,] [C,,,C,,G,,E,] | %61
 [D,,,D,,G,,=E,] [D,,,D,,A,,F,] [D,,,D,,A,,F,] [D,,,D,,A,,F,] | %62
 [_E,,,_E,,A,,F,] [E,,,E,,_B,,G,] [E,,,E,,B,,G,] [E,,,E,,B,,G,] | %63
 [D,,,D,,_B,,G,] [D,,,D,,A,,F,] [D,,,D,,A,,F,] [D,,,D,,A,,F,] |$ %64
 [=E,,,=E,,G,,A,,C,=E,F,] z [F,,,F,,=B,,F,] [A,,,E,,A,,E,] | %65
 [D,,,F,,,A,,,C,,^C,,] [D,,,F,,,A,,,] [^C,,,=E,,,^G,,,] [C,,,E,,,G,,,] | %66
 [=E,,,^G,,,=B,,,] [E,,,G,,,B,,,] [^D,,,=G,,,^A,,,] [_E,,,G,,,_B,,,] | %67
 [D,,,F,,,A,,,] [D,,,F,,,A,,,] [^C,,,=E,,,^G,,,] [C,,,E,,,G,,,] |$ %68
 [=E,,,^G,,,=B,,,] [E,,,G,,,B,,,] [^D,,,=G,,,^A,,,] [_E,,,G,,,_B,,,] | %69
 [D,,,F,,,A,,,] [D,,,F,,,A,,,] [^C,,,=E,,,^G,,,] [C,,,E,,,G,,,] | %70
 [=E,,,^G,,,=B,,,] [E,,,G,,,B,,,] [^D,,,=G,,,^A,,,] [_E,,,G,,,_B,,,] | %71
 [D,,,F,,,A,,,] [D,,,F,,,A,,,] [^C,,,=E,,,^G,,,] [C,,,E,,,G,,,] |$ %72
 [=E,,,^G,,,=B,,,] [E,,,G,,,B,,,] [^D,,,=G,,,^A,,,] [_E,,,G,,,_B,,,] | %73
 [D,,,F,,,A,,,] [D,,,F,,,A,,,] [^C,,,=E,,,^G,,,] [C,,,E,,,G,,,] | %74
 [=E,,,^G,,,=B,,,] [E,,,G,,,B,,,] [^D,,,=G,,,^A,,,] [_E,,,G,,,_B,,,] | %75
 [D,,,F,,,A,,,] [D,,,F,,,A,,,] [^C,,,=E,,,^G,,,] [C,,,E,,,G,,,] |$ %76
 [=E,,,^G,,,=B,,,] [E,,,G,,,B,,,] [^D,,,=G,,,^A,,,] [_E,,,G,,,_B,,,] | %77
 [D,,,F,,,A,,,] [D,,,F,,,A,,,] [^C,,,=E,,,^G,,,] [C,,,E,,,G,,,] | %78
 [=E,,,^G,,,=B,,,] [E,,,G,,,B,,,] [^D,,,=G,,,^A,,,] [_E,,,G,,,_B,,,] | %79
 [D,,,F,,,A,,,] [D,,,F,,,A,,,] [=E,,,G,,,=B,,,] [E,,,G,,,B,,,] |$ %80
 [F,,,_A,,,C,,] [G,,,_B,,,D,,] [=A,,,C,,=E,,] [B,,,F,,] | %81
 [D,,,-D,,F,,_B,,] [D,,,F,,A,,B,,D,] [^C,,,-=E,,,-^C,,D,,=E,,] [C,,,E,,,E,,A,,^C,] | %82
 [C,,,-=E,,,-C,,_D,,=E,,] [C,,,E,,,-E,,A,,C,] [=B,,,,-E,,,^F,,,-=B,,,C,,=D,,] [B,,,,F,,,D,,^F,,=B,,] | %83
 [^A,,,,-D,,,-^A,,,=B,,,D,,] [A,,,,D,,,D,,F,,_B,,] [C,,,-=E,,,-_B,,,C,,=E,,] [C,,,E,,,E,,G,,B,,] |$ %84
 [D,,,C,,D,,F,,] [^C,,,=E,,,=E,,A,,^C,] [D,,,F,,,^C,,D,,F,,] [D,,,F,,,F,,A,,D,] | %85
 [D,,,-A,,,D,,F,,] [D,,,F,,A,,D,] [^C,,,-=E,,,-^C,,D,,=E,,] [C,,,E,,,E,,A,,^C,] | %86
 [C,,,-=E,,,-C,,_D,,=E,,] [C,,,E,,,-E,,A,,C,] [=B,,,,-E,,,^F,,,-=B,,,C,,=D,,] [B,,,,F,,,D,,^F,,=B,,] | %87
 [^A,,,,-D,,,-^A,,,=B,,,D,,] [A,,,,D,,,D,,F,,_B,,] [C,,,-=E,,,-_B,,,C,,=E,,] [C,,,E,,,E,,G,,B,,] |$ %88
 [D,,,F,,,C,,D,,F,,] [^C,,,=E,,,G,,,=E,,A,,^C,] [D,,,F,,,A,,,^C,,D,,F,,] [D,,,F,,,A,,,F,,A,,D,] | %89
 [D,,,D,,] [D,,,D,,D,] [^C,,,^C,,D,,D,] [C,,,C,,^C,] | %90
 [C,,,C,,_D,,_D,] [C,,,C,,C,] [=B,,,,=B,,,C,,C,] [B,,,,B,,,=B,,] | %91
 [^A,,,,^A,,,=B,,,=B,,] [A,,,,A,,,^A,,] [C,,,_B,,,C,,_B,,] [C,,,C,,C,] |$ %92
 [D,,,C,,D,,C,] [=E,,,D,,=E,,D,] [F,,,E,,F,,=E,] [D,,,D,,F,,F,] | %93
 [D,,,D,,D,] [D,,,D,,D,] [^C,,,^C,,D,,D,] [C,,,C,,^C,] | %94
 [C,,,C,,_D,,_D,] [C,,,C,,C,] [=B,,,,=B,,,C,,C,] [B,,,,B,,,=B,,] |$ %95
 [^A,,,,^A,,,=B,,,=B,,] [A,,,,A,,,^A,,] [C,,,_B,,,C,,_B,,] [C,,,C,,C,] | %96
 [D,,,C,,D,,C,] [=E,,,D,,=E,,D,] [F,,,E,,F,,=E,] [D,,,D,,F,,F,] | [^C,,D,] z z2 | z4 |$ z4 | z4 | %101
 z4 | z4 | z4 |$ z4 | z4 | z4 | z4 |$ z4 | z4 | z4 |$ z4 | z4 |$ %113
 ^A,,, [_B,,,^A,,] [C,,_B,,] [C,,C,] | [D,,C,] [D,,D,] [=B,,,D,] [B,,,=B,,] | %115
 [^A,,,=B,,] [A,,,^A,,] [C,,A,,] [C,,C,] | [D,,C,] [=E,,D,] [F,,=E,] [C,,F,] | %117
 [_B,,,C,] [B,,,_B,,] [C,,B,,] [C,,C,] |$ [D,,C,] [D,,D,] [=B,,,D,] [B,,,=B,,] | =B,, z z2 | z4 | %121
 D,,, D,,, [^C,,,D,,,] C,,, |$ [C,,,^C,,,] =C,,, [=B,,,,C,,,D,,,] [B,,,,D,,,] | %123
 [^A,,,,=B,,,,D,,,] [_B,,,,D,,,] [B,,,,C,,,D,,,] C,,, | %124
 [C,,,D,,,] [^C,,,D,,,=E,,,] [C,,,D,,,E,,,F,,,] [D,,,F,,,] | %125
 [D,,,F,,,] [D,,,F,,,] [^C,,,D,,,=E,,,F,,,] [C,,,E,,,] |$ %126
 [C,,,_D,,,=E,,,] [C,,,E,,,] [=B,,,,C,,,=D,,,E,,,] [B,,,,D,,,] | %127
 [^A,,,,=B,,,,D,,,] [_B,,,,D,,,] [B,,,,C,,,D,,,=E,,,] [C,,,E,,,] |$ %128
 [C,,,D,,,=E,,,F,,,] [^C,,,D,,,E,,,F,,,] [C,,,D,,,E,,,F,,,] [D,,,F,,,] | %129
 [D,,,^D,,,F,,,=B,,,^D,,^F,,^D,] [D,,,B,,,D,,F,,^A,,=B,,D,] [_D,,,^D,,,^G,,,_D,,^D,,=F,,B,,_D,^D,] [_D,,,G,,,_D,,F,,^G,,_D,] |$ %130
 [^C,,,^D,,,^A,,,^C,,^D,,^F,,^G,,^C,^D,] [_E,,,A,,,_E,,=F,,^A,,_E,] [=C,,,E,,,G,,,=C,,E,,_B,,=C,E,] [C,,,G,,,C,,E,,=G,,C,] | %131
 [=B,,,,C,,,^F,,,=B,,,C,,^D,,G,,=B,,C,] [B,,,,F,,,B,,,D,,^F,,B,,] [B,,,,=F,,,^G,,,B,,,=F,,^F,,B,,F,] [F,,,_A,,,=F,,_A,,F,] | %132
 [_E,,,F,,,^A,,,_E,,F,,_G,,_A,,_E,F,] [E,,,F,,,_B,,,E,,F,,_B,,D,-E,F,] [F,,,^F,,,A,,,D,,^D,,F,,^F,,B,,D,F,^F,] [^D,,,F,,,A,,,D,,F,,^A,,^D,F,] |$ %133
 [^D,,,^A,,,=B,,,^D,,^F,,^A,,^D,] [D,,,B,,,D,,F,,A,,=B,,D,] [^C,,,D,,,^G,,,_D,,^D,,=F,,B,,_D,^D,] [_D,,,_A,,,_D,,F,,_A,,_D,] | %134
 [^C,,,^D,,,^A,,,^C,,^D,,^F,,^G,,^C,^D,] [_E,,,_B,,,_E,,=F,,_B,,_E,] [=C,,,E,,,G,,,=C,,E,,B,,=C,E,] [C,,,G,,,C,,E,,=G,,C,] |$ %135
 [=B,,,,C,,,^F,,,=B,,,C,,^D,,G,,=B,,C,] [B,,,,F,,,B,,,D,,^F,,B,,] [B,,,,=F,,,^G,,,B,,,=F,,^F,,B,,F,] [F,,,G,,,=F,,^G,,B,,F,] | %136
 [_B,,,,^C,,,_E,,,F,,,_B,,,_D,,^D,,F,,^F,,_A,,_B,,_D,_E,F,] [B,,,,_D,,,E,,,F,,,B,,,_D,,_E,,=F,,B,,D,=D,E,F,] [B,,,,C,,,F,,,^F,,,B,,,D,,=D,,^D,,F,,^F,,B,,_D,F,_G,] [B,,,,D,,,E,,,=F,,,_G,,,B,,,_D,,E,,=F,,_G,,B,,D,E,F,G,] |$ %137
 [_B,,,,^C,,,^D,,,F,,,=B,,,_D,,^D,,F,,^F,,_B,,_D,^D,F,] [D,,,B,,,D,,F,,^A,,=B,,D,] [_D,,,^D,,,_A,,,_D,,^D,,=F,,B,,_D,^D,] [_D,,,A,,,_D,,F,,^G,,_D,] | %138
 [^C,,,^D,,,^C,,^D,,^F,,^G,,^C,^D,] [_E,,,^A,,,_E,,=F,,^A,,_E,] [=C,,,E,,,=C,,E,,_B,,=C,E,] [C,,,G,,,C,,E,,=G,,C,] | %139
 [=B,,,,C,,,^F,,,=B,,,C,,G,,=B,,C,] [B,,,,F,,,B,,,^D,,^F,,B,,] [B,,,,=F,,,^G,,,B,,,=F,,^F,,B,,F,] [F,,,_A,,,=F,,_A,,F,] |$ %140
 [^D,,,F,,,^A,,,^D,,F,,_A,,_E,F,] [_E,,,F,,,_B,,,_E,,F,,_B,,D,-E,F,] [F,,,^F,,,A,,,=D,,^D,,F,,^F,,B,,D,F,^F,] [D,,,F,,,A,,,D,,F,,^A,,^D,F,] | %141
 [^D,,,^A,,,=B,,,^D,,^F,,^A,,^D,] [D,,,B,,,D,,F,,A,,=B,,D,] [^C,,,D,,,^G,,,^C,,D,,B,,^C,D,] [_D,,,_A,,,_D,,=F,,^G,,_D,] |$ %142
 [^C,,,^D,,,^A,,,^C,,^D,,^G,,^C,^D,] [_E,,,A,,,_E,,F,,^A,,_E,] [=C,,,E,,,G,,,=C,,E,,_B,,=C,E,] [C,,,G,,,C,,E,,=G,,C,] | %143
 [=B,,,,C,,,^F,,,C,,G,,=B,,C,] [B,,,,F,,,=B,,,^D,,^F,,B,,] [B,,,,=F,,,^G,,,B,,,=F,,^F,,B,,F,] [F,,,G,,,=F,,^G,,B,,F,] |$ %144
 [_B,,,,^C,,,_E,,,F,,,_B,,,_D,,_E,,F,,_G,,_A,,_B,,_D,_E,F,] [B,,,,_D,,,E,,,F,,,B,,,D,,E,,F,,B,,D,=D,E,F,] [B,,,,C,,,F,,,^F,,,B,,,D,,=D,,E,,F,,^F,,B,,_D,F,_G,] [B,,,,C,,,E,,,=F,,,^F,,,B,,,_D,,E,,=F,,G,,B,,D,E,F,G,] | %145
 [^A,,,,^C,,,^D,,,F,,,^F,,,_D,,^D,,F,,_B,,_D,^D,F,] [A,,,,D,,,F,,,] [A,,,,D,,,F,,,] [A,,,,D,,,F,,,] | %146
 [^A,,,,=B,,,,^D,,,=E,,,^F,,,^G,,,] [B,,,,E,,,G,,,] [B,,,,E,,,G,,,] [B,,,,E,,,G,,,] |$ %147
 [^A,,,,=B,,,,^D,,,=E,,,^F,,,^G,,,] [A,,,,D,,,F,,,] [A,,,,D,,,F,,,] [_B,,,,_E,,,F,,,] | %148
 [_B,,,,=B,,,,D,,,_E,,,F,,,_G,,,] [B,,,,D,,,F,,,] [B,,,,D,,,F,,,] [B,,,,D,,,F,,,] | %149
 [^A,,,,=B,,,,D,,,^D,,,F,,,^F,,,] [A,,,,D,,,F,,,] [A,,,,D,,,F,,,] [A,,,,D,,,F,,,] | %150
 [^A,,,,=B,,,,^D,,,=E,,,^F,,,^G,,,] [B,,,,E,,,G,,,] [B,,,,E,,,G,,,] [B,,,,E,,,G,,,] |$ %151
 [^A,,,,=B,,,,^D,,,=E,,,^F,,,^G,,,] [A,,,,D,,,F,,,] [A,,,,D,,,F,,,] [_B,,,,_E,,,F,,,] | %152
 [_B,,,,=B,,,,D,,,_E,,,F,,,_G,,,] [B,,,,D,,,F,,,] [B,,,,D,,,F,,,] [B,,,,D,,,F,,,] | %153
 [=B,,,,D,,,^D,,,F,,,^F,,,] [B,,,,D,,,F,,,] [B,,,,D,,,F,,,] [B,,,,D,,,F,,,] | %154
 [=B,,,,^C,,,^D,,,F,,,^F,,,_A,,,] [_D,,,=F,,,A,,,] [D,,,F,,,A,,,] [D,,,F,,,A,,,] |$ %155
 [^A,,,,_D,,,^D,,,F,,,^G,,,] [A,,,,D,,,] [_B,,,,D,,,] [B,,,,_E,,,] | %156
 [_B,,,,D,,,_E,,,F,,,_A,,,] [D,,,F,,,A,,,] [D,,,F,,,A,,,] [D,,,F,,,A,,,] | %157
 [^A,,,,D,,,^D,,,F,,,^F,,,_A,,,] [A,,,,D,,,F,,,] [A,,,,D,,,F,,,] [A,,,,D,,,F,,,] | %158
 [^A,,,,=B,,,,^D,,,=E,,,^F,,,^G,,,] [B,,,,E,,,G,,,] [B,,,,E,,,G,,,] [B,,,,E,,,G,,,] |$ %159
 [^A,,,,=B,,,,^D,,,=E,,,^F,,,^G,,,] [A,,,,D,,,F,,,] [A,,,,D,,,F,,,] [A,,,,D,,,F,,,] | %160
 [_B,,,,_E,,,^F,,,_A,,,] z _G,,, =F,,, | %161
 [A,,,,^A,,,,=B,,,,C,,,] [^C,,,D,,,^D,,,=E,,,F,,,^F,,,G,,,^G,,,] [A,,,^A,,,=B,,,C,,^C,,D,,^D,,=E,,] [F,,^F,,G,,^G,,A,,^A,,=B,,C,] |$ %162
 [^C,D,^D,=E,F,^F,G,^G,] [A,^A,=B,] z2 | z4 | z2 [F,,^F,,G,,^G,,A,,^A,,=B,,]2- | %165
 [F,,F,,G,,G,,A,,A,,B,,]4- | [F,,F,,G,,G,,A,,A,,B,,]4- |$ [F,,F,,G,,G,,A,,A,,B,,]4 | z4 | z4 | z4 | %171
 z4 | z [A,,,,D,,,D,,]2- [A,,,,D,,,D,,] |$ x4 |] %174
V:7
 z4 | z4 | z4 | z4 |$ z4 | z4 | z4 | z4 | z4 |$ D,,, D,, ^C,,, ^C,, | E,,, E,, ^D,,, ^D,, | %11
 D,,, D,, ^C,,, ^C,, | E,,, E,, ^D,,, ^D,, | D,,, D,, ^C,,, ^C,, |$ E,,, E,, ^D,,, ^D,, | %15
 D,,, D,, ^C,,, ^C,, | E,,, E,, ^D,,, ^D,, | D,,, [D,,,D,,] [^C,,,D,,] [C,,,^C,,] | %18
 [E,,,^C,,] [E,,,E,,] [^D,,,E,,] [D,,,^D,,] |$ [D,,,^D,,] [D,,,=D,,] [^C,,,D,,] [C,,,^C,,] | %20
 [E,,,^C,,] [E,,,E,,] [^D,,,E,,] [D,,,^D,,] | [D,,,_E,,] [D,,,D,,] [^C,,,D,,] [C,,,^C,,] | %22
 [E,,,^C,,] [E,,,E,,] [^D,,,E,,] [D,,,^D,,] |$ [D,,,^D,,] [D,,,=D,,] [^C,,,D,,] [C,,,^C,,] | %24
 [E,,,^C,,] [E,,,E,,] [^D,,,E,,] [D,,,^D,,] | [E,,,^D,,] [E,,,E,,] [^D,,,E,,] [D,,,D,,] | %26
 [^F,,,^D,,] [_G,,,_G,,] [=F,,,G,,] [F,,,F,,] |$ [E,,,F,,] [E,,,E,,] [^D,,,E,,] [D,,,^D,,] | %28
 [_G,,,^D,,] [G,,,_G,,] [F,,,G,,] [F,,,F,,] | [D,,,F,,] [D,,,D,,] [^C,,,D,,] [C,,,^C,,] | %30
 [E,,,^C,,] [E,,,E,,] [^D,,,E,,] [D,,,^D,,] |$ [D,,,^D,,] [D,,,=D,,] [^C,,,D,,] [C,,,^C,,] | %32
 [E,,,^C,,] [E,,,E,,] [E,,G,,] [F,,^F,,G,,_A,,] | [^D,,E,,] [A,,F,A,] [D,E,F,] [E,^G,] | %34
 E, [C,E,A,] [D,E,A,] [=B,,D,^F,] |$ [=B,,D,] [_B,,D,F,] [D,E,F,] [C,E,G,] | %36
 [E,F,G,] [F,G,] G, A, | [D,F,] [A,,F,A,] [D,E,F,] [E,^G,] | E, [C,E,A,] [D,E,A,] [=B,,D,^F,] |$ %39
 [=B,,D,] [_B,,F,] [D,E,F,] [E,G,B,D] | [E,C_D] [F,G,A,] A, [F,A,] | A, z z2 | z4 |$ z4 | z4 | z4 | %46
 z4 |$ z4 | z4 | z4 | z4 |$ z4 | z4 | z4 | z4 |$ z4 | z4 | z z2 D, | z z2 G | z z2 D, |$ z z2 G | %61
 z4 | z4 | z4 |$ z4 | [C,,D,,F,,A,,] [D,,F,,A,,] [^C,,E,,^G,,] [C,,E,,G,,] | %66
 [E,,^G,,=B,,] [E,,G,,B,,] [_E,,=G,,_B,,] [E,,G,,B,,] | %67
 [D,,F,,A,,] [D,,F,,A,,] [^C,,E,,^G,,] [C,,E,,G,,] |$ %68
 [E,,^G,,=B,,] [E,,G,,B,,] [_E,,=G,,_B,,] [E,,G,,B,,] | %69
 [D,,F,,A,,] [D,,F,,A,,] [^C,,E,,^G,,] [C,,E,,G,,] | %70
 [E,,^G,,=B,,] [E,,G,,B,,] [_E,,=G,,_B,,] [E,,G,,B,,] | %71
 [D,,F,,A,,] [D,,F,,A,,] [^C,,E,,^G,,] [C,,E,,G,,] |$ %72
 [E,,^G,,=B,,] [E,,G,,B,,] [_E,,=G,,_B,,] [E,,G,,B,,] | %73
 [D,,F,,A,,] [D,,F,,A,,] [^C,,E,,^G,,] [C,,E,,G,,] | %74
 [E,,^G,,=B,,] [E,,G,,B,,] [_E,,=G,,_B,,] [E,,G,,B,,] | %75
 [D,,F,,A,,] [D,,F,,A,,] [^C,,E,,^G,,] [C,,E,,G,,] |$ %76
 [E,,^G,,=B,,] [E,,G,,B,,] [_E,,=G,,_B,,] [E,,G,,B,,] | %77
 [D,,F,,A,,] [D,,F,,A,,] [^C,,E,,^G,,] [C,,E,,G,,] | %78
 [E,,^G,,=B,,] [E,,G,,B,,] [_E,,=G,,_B,,] [E,,G,,B,,] | %79
 [D,,F,,A,,] [D,,F,,A,,] [E,,=B,,D,] [E,,B,,D,] |$ [F,,=B,,A,] [G,,D,] [E,F,] [_B,,F,A,] | %81
 [D,B,] [F,A,] [D,E,F,] [E,^G,] | [E,F,] [E,A,] [D,E,A,] [A,,D,^F,] | %83
 [A,,B,,D,] [B,,D,F,] [C,D,E,F,] [C,E,G,] |$ [D,E,G,] [D,F,G,B,] [F,B,] [F,B,] | %85
 [D,E,] [E,A,] [D,F,] [F,G,] | [E,F,] [D,E,A,] [D,E,A,] [A,,D,^F,] | %87
 [A,,B,,D,] [B,,F,] [C,D,E,F,] [E,G,B,D] |$ [D,E,C^C] [D,F,G,A,] [E,F,A,] [F,A,] | %89
 [D,E,A,] [A,,F,] [E,,,E,,A,,^C,E,] [E,,,E,,^G,,] | %90
 [E,,,E,,^G,,C,E,F,] [E,,,E,,A,,C,E,] [^F,,,D,,^F,,A,,D,E,] [F,,,D,,F,,D,] | %91
 [D,,,D,,^F,,B,,D,] [D,,,D,,B,,D,] [E,,,E,,C,D,E,F,] [E,,,E,,C,E,] |$ %92
 [F,,D,E,G,] [_D,,,_D,,G,,A,,D,F,A,] [=D,,,=D,,A,,F,A,] [F,,,A,,,F,,A,,] | %93
 [F,,,D,,A,,D,] [D,,A,,E,] [E,,,E,,-A,,F,] [E,,,E,,^G,,] | %94
 [F,,,F,,-^G,,C,E,F,] [F,,,F,,A,,C,E,] [G,,,D,,=G,,-A,,D,E,] [G,,,D,,G,,D,] |$ %95
 [D,,,D,,B,,D,] [D,,,F,,,D,,B,,F,] [E,,,F,,,D,,E,,-C,D,E,F,] [E,,,G,,,D,,E,,E,G,B,D] | %96
 [F,,,G,,,F,,D,E,C_D] [^C,,,A,,,^C,,G,,A,,F,G,A,] [=C,,,A,,,=C,,A,,F,A,] [=B,,,,F,,,A,,,=B,,,F,,A,,F,A,] | %97
 [A,,A,] z z2 | z4 |$ z4 | z4 | z4 | z4 | z4 |$ z4 | z4 | z4 | z4 |$ z4 | z4 | z4 |$ z4 | z4 |$ %113
 z4 | z4 | z4 | z4 | z4 |$ z4 | %119
 [D,,,D,,B,,D,] [D,,,D,,B,,] [E,,,C,,E,,B,,C,D,E,F,] [E,,,C,,E,,C,E,G,B,D] | %120
 [F,,,D,,C,D,E,_D] [^C,,,E,,,^C,,D,,E,,A,,D,F,G,A,] [=C,,,G,,,A,,,C,,D,,F,,A,,^C,D,E,F,A,] [=B,,,,F,,,A,,,D,,F,,A,,D,F,] | %121
 [D,,F,,A,,F,] z z2 |$ z4 | z4 | z4 | z4 |$ z4 | z4 |$ z4 | =B,, B,, ^C, z |$ ^D, z z2 | %131
 z2 [=B,,,,^C,] [_C,,,C,] | _E, z _D, C, |$ =B,, B,, ^C, z | ^D, z z2 |$ ^D,,, D,,, =B,,,, B,,,, | %136
 z2 ^F, z |$ =B,, B,, ^C, z | ^D, z z2 | z2 [_C,,,^C,] [C,,,_D,] |$ _E, z _D, C, | %141
 =B,, B,, ^C, z |$ ^D, z z2 | ^D,,, D,,, _C,,, C,,, |$ z2 _G, z | [_E_GB] [EG] [EGB] [E^FB] | %146
 [^DE^F^G] [EG] [EG] [EG] |$ [_E=E_G^GB] [_E_G] [EGB] [EGB] | [D_EF_G_A] [DFA] [DFA] [DFA] | %149
 [D_EF_G_AB] [EG] [EGB] [E^FB] | [^DE^F^G] [EG] [EG] [EG] |$ [_E=E_G^GB] [_E_G] [EGB] [EGB] | %152
 [D_EF_G_A] [DFA] [DFA] [DFA] | [D^DF^F_A] D [DF] [_EF] | [_D_EF] [DF] [DF] [DF] |$ %155
 [_D_EF_G] E [EG] [EG] | [D_EF] [DF] [DF] [DF] | [D_EF_GB] [EG] [EGB] [E^FB] | %158
 [^DE^F^G] [EG] [EG] [EG] |$ [_E=E_G^GB] [_E_G] [EGB] [EGB] | [_E_G] z z2 | z4 |$ z4 | z4 | %164
 z2 [C,,^C,,D,,^D,,E,,]2- | [C,,C,,D,,D,,E,,]4- | [C,,C,,D,,D,,E,,]4- |$ [C,,C,,D,,D,,E,,]4 | x4 | %169
 x4 | x4 | x4 | x4 |$ x4 |] %174
V:8
 z4 | z4 | z4 | z4 |$ z4 | z4 | z4 | z4 | z4 |$ z4 | z4 | z A,, z ^G,, | z =B,, z ^A,, | z4 |$ z4 | %15
 A,, z ^G,, z | =B,, z ^A,, z | z4 | z4 |$ z A,, A,, ^G,, | ^G,, =B,, B,, ^A,, | ^A,, z z2 | z4 |$ %23
 z A,, A,, ^G,, | ^G,, =B,, B,, ^A,, | ^A,, z z2 | z4 |$ z =B,, B,, ^A,, | ^A,, ^C, C, ^B,, | %29
 ^B,, z z2 | z4 |$ z A,, A,, ^G,, | ^G,, =B,, [^A,,B,,] z | z2 [E,,,E,,]2 | %34
 [E,,,E,,]2- [E,,,^F,,,-E,,^F,,-] [F,,,F,,] |$ [D,,,D,,]2 [E,,,E,,]2 | %36
 z [^C,,,^C,,] [D,,,D,,] [A,,,,=F,,,A,,,=F,,] | z2 [E,,,E,,]2 | %38
 [E,,,E,,]2- [E,,,^F,,,-E,,^F,,-] [F,,,F,,] |$ [D,,,D,,]2 [E,,,E,,]2 | %40
 [=F,,,=F,,] [^C,,,=G,,,^C,,=G,,] [=C,,,A,,,=C,,A,,] [=B,,,,F,,,A,,,F,,A,,] | %41
 [D,,,_B,,] [D,,,B,,] [=C,,,=C,] [C,,,C,] | [D,,,D,] [D,,,D,] [=B,,,,=B,,] [B,,,,B,,] |$ %43
 [D,,,^A,,] [D,,,_B,,] [_B,,,,=C,] [B,,,,C,] | [D,,,D,-] [E,,,^C,D,] [=F,,,=C,] [D,,,=B,,] | %45
 [D,,,_B,,] [D,,,B,,] [=C,,,=C,] [C,,,C,] | [D,,,D,] [D,,,D,] [=B,,,,=B,,] [B,,,,B,,] |$ %47
 [D,,,^A,,] [D,,,_B,,] [_B,,,,^B,,] [B,,,,=C,D,] | D,,, [E,,,D,E,] [=F,,,E,=F,] [D,,,F,] | %49
 z D, D, D, | D, ^D, _E, E, |$ _E, D, D, D, | D, z z2 | z D, D, D, | D, ^D, _E, E, |$ %55
 _E, D, D, D, | D, z z2 | z _B,, B,, B,, | _B,, =C, C, C, | =C, z z2 |$ z4 | z D, D, D, | %62
 D, _E, E, E, | _E, D, D, D, |$ [=G,,,=C,,D,,] [D,,=G,,] [^G,,,^C,,D,,] [=C,,E,,=F,,] | %65
 z [D,=F,A,] [D,F,A,] [^C,E,^G,] | [^C,E,^G,] [E,G,=B,] [E,G,B,] [^D,=G,^A,] | %67
 [_E,=G,_B,] [D,=F,A,] [D,F,A,] [^C,=E,^G,] |$ [^C,E,^G,] [E,G,=B,] [E,G,B,] [^D,=G,^A,] | %69
 [_E,=G,_B,] [D,=F,A,] [D,F,A,] [^C,=E,^G,] | [^C,E,^G,] [E,G,=B,] [E,G,B,] [^D,=G,^A,] | %71
 [_E,=G,_B,] [D,=F,A,] [D,F,A,] [^C,=E,^G,] |$ [^C,E,^G,] [E,G,=B,] [E,G,B,] [^D,=G,^A,] | %73
 [_E,=G,_B,] [D,=F,A,] [D,F,A,] [^C,=E,^G,] | [^C,E,^G,] [E,G,=B,] [E,G,B,] [^D,=G,^A,] | %75
 [_E,=G,_B,] [D,=F,A,] [D,F,A,] [^C,=E,^G,] |$ [^C,E,^G,] [E,G,=B,] [E,G,B,] [^D,=G,^A,] | %77
 [_E,=G,_B,] [D,=F,A,] [D,F,A,] [^C,=E,^G,] | [^C,E,^G,] [E,G,=B,] [E,G,B,] [^D,=G,^A,] | %79
 [_E,=G,_B,] [D,=F,A,] [D,F,A,] [=E,G,=B,] |$ [E,=G,] [^E,^G,^B,] [G,=C] z | z4 | z4 | z4 |$ z4 | %85
 z4 | z4 | z4 |$ z4 | z4 | z4 | z4 |$ z4 | z4 | z4 |$ z4 | z4 | z4 | z4 |$ z4 | z4 | z4 | z4 | %103
 z4 |$ z4 | z4 | z4 | z4 |$ z4 | z4 | z4 |$ z4 | z4 |$ z4 | z4 | z4 | z4 | z4 |$ z4 | %119
 [=F,,,_B,,,] [F,,,B,,,] =G,,, G,,, | z4 | z4 |$ z4 | z2 E,, E,, | %124
 [E,,=F,,] [E,,F,,] [E,,F,,] F,, | =F,, F,, [E,,F,,] E,, |$ E,, E,, [D,,E,,] D,, | %127
 D,, D,, [D,,E,,] E,, |$ E,, z z2 | z4 |$ z4 | z4 | z4 |$ z4 | z4 |$ z4 | z4 |$ z4 | z4 | z4 |$ %140
 z4 | z4 |$ z z2 [^a^d'^a'^d''] | z4 |$ z4 | z4 | z4 |$ z4 | z4 | z4 | z4 |$ z4 | z4 | z4 | z4 |$ %155
 z4 | z4 | z4 | z4 |$ z4 | ^G,, [^D,^G,] [A,,D,] [^E,^F,] | ^C, z z2 |$ z4 | z4 | %164
 z2 [^E,,,^F,,,^^F,,,^G,,,A,,,^A,,,=B,,,]2- | [E,,,F,,,F,,,G,,,A,,,A,,,B,,,]4- | %166
 [E,,,F,,,F,,,G,,,A,,,A,,,B,,,]4- |$ [E,,,F,,,F,,,G,,,A,,,A,,,B,,,]4 | x4 | x4 | x4 | x4 | x4 |$ %173
 x4 |] %174
V:9
[K:A] z4 | z4 | z4 | z4 |$ z4 | z4 | z4 | z4 | z4 |$ z4 | z4 | z4 | z4 | z4 |$ z4 | z4 | z4 | z4 | %18
 z4 |$ z4 | z4 | z4 | z4 |$ z4 | z4 | z4 | z4 |$ z4 | z4 | z4 | z4 |$ z4 | %32
 z z2 [^E,,,F,,,^^F,,,G,,,] | [D,,,-^D,,,E,,,] D,,, C,,,2 | ^B,,,,2 =B,,,,2 |$ ^A,,,,2 =C,,,2 | %36
 D,,, E,,, =F,,, D,,, | D,,,2 C,,,2 | =C,,,2 B,,,,2 |$ ^A,,,,2 =C,,,2 | D,,, E,,, =F,,, D,,, | %41
 z2 [E,,,E,,]2 | [=F,,,-=F,,]2 [F,,,=G,,,-=G,,-] [G,,,G,,] |$ =F,,,2 [E,,,E,,]2 | %44
 =F,, [C,,,C,,E,,=G,,] [=C,,,=C,,F,,] [B,,,,F,,,B,,,F,,] | z2 [E,,,E,,]2 | %46
 [=F,,,-=F,,]2 [F,,,=G,,,-=G,,-] [G,,,G,,] |$ =F,,,2 [E,,,E,,]2 | %48
 [=F,,,=F,,] [C,,,=G,,,C,,E,,=G,,] [D,,,A,,,D,,F,,] [B,,,,F,,,B,,,F,,] | D,, z z2 | z4 |$ z4 | z4 | %53
 z4 | z4 |$ z4 | z4 | z4 | z4 | z4 |$ z4 | z4 | z4 | z4 |$ z4 | z [=G,=CD] A, [G,CD] | %66
 A, [=G,=CD] A, [G,CD] | A, z z2 |$ z4 | z [=G,=CD] A, [G,CD] | A, [=G,=CD] A, [G,CD] | A, z z2 |$ %72
 z4 | z [=G,=CD] A, [G,CD] | A, [=G,=CD] A, [G,CD] | A, z z2 |$ z4 | z [=G,=CD] A, [G,CD] | %78
 A, [=G,=CD] A, [G,CD] | A, z z2 |$ z4 | z4 | z4 | z4 |$ z4 | z4 | z4 | z4 |$ z4 | z4 | z4 | z4 |$ %92
 z4 | z4 | z4 |$ z4 | z4 | z4 | z4 |$ z4 | z4 | z4 | z4 | z4 |$ z4 | z4 | z4 | z4 |$ z4 | z4 | %110
 z4 |$ z4 | z4 |$ z4 | z4 | z4 | z4 | z4 |$ z4 | z4 | z4 | z4 |$ z4 | z4 | z4 | z4 |$ z4 | z4 |$ %128
 z4 | z4 |$ z4 | z4 | z4 |$ z4 | z4 |$ z4 | z4 |$ z4 | z4 | z4 |$ z4 | z4 |$ z4 | z4 |$ z4 | z4 | %146
 z4 |$ z4 | z4 | z4 | z4 |$ z4 | z4 | z4 | z4 |$ z4 | z4 | z4 | z4 |$ z4 | %160
 z [^D,,G,,] [A,,,D,,] F,, | C,, z z2 |$ z4 | z4 | z2 [A,,,,^A,,,,B,,,,=C,,,^C,,,D,,,^D,,,E,,,]2- | %165
 [A,,,,A,,,,B,,,,C,,,C,,,D,,,D,,,E,,,]4- | [A,,,,A,,,,B,,,,C,,,C,,,D,,,D,,,E,,,]4- |$ %167
 [A,,,,A,,,,B,,,,C,,,C,,,D,,,D,,,E,,,]4 | x4 | x4 | x4 | x4 | x4 |$ x4 |] %174
V:10
[K:E] z4 | z4 | z4 | z4 |$ z4 | z4 | z4 | z4 | z4 |$ [=D-=F] D [C-E] C | [E-G] E- [D-E^A] D | z4 | %12
 z4 | [=d=fa]2 [Gceg]2 |$ [egb]- [B-egb] [^ABd-^^f-^a-] [dfa] | z4 | z4 | %17
 z [^^C^EA] [CEA] [^C=EG] | [CEG] [EGB] [EGB] [D^^F^A] |$ [D^^F^A] z z2 | z4 | %21
 z [^^c^ea] [cea] [^c=eg] | [ceg] [egb] [egb] [d^^f^a] |$ [d^^f^a] z z2 | z4 | [e^^fb]2 [d^f^a]2 | %26
 [f^ac']2 [=f=a=c']2 |$ z4 | z4 | [=f=d'-a'-] [d'a'] [ec'-g'-] [c'g'] | %30
 [ge'-b'-] [e'b'] [^^fd'^a']2 |$ z4 | z4 | ^E, z [G,C-] C | [E,A,=C-] C [F,B,-^^C-] [B,C] |$ %35
 [^E,A,-^^C-] [A,C] [^^F,^A,-E-] [A,E] | [=F,A,^^C] [^^F,^C] [A,^^C] [^E,A,C] | %37
 [=F,A,] z [E,G,C-] C | [E,A,=C-] C [F,B,-^^C] B, |$ %39
 [^E,A,-^^C-^E-] [A,CE] [^^F,-^A,=E-^^F-] [F,EF] | [A,^^C^E] [A,^C^^F] [A,^^CEA] [A,CEA] | %41
 [^E,^A,] [E,A,^^C] [=E,^^F,^B,] [E,F,B,] | [=F,A,] [^E,A,^^C] [^^F,B,C] [F,B,C] |$ %43
 [^^C,^E,A,^^C] [C,E,A,C] [^^F,^A,E] [F,A,E] | [=F,A,] [^^F,^A,C] [=A,^B,] [^E,=B,^^C] | %45
 [^E,^A,] [E,A,^^C] [=E,^^F,^B,] [E,F,B,] | [=F,A,] [^E,A,^^C] [^^F,B,C] [F,B,C] |$ %47
 [^^C,^E,A,^^C] [C,E,A,C^E] [^^F,^A,=E] [F,A,E^^F] | [A,^^C] [^A,^CE^^F] [=A,=FA] [A,^^CFA] | %49
 [A,^^C^E] [A,CE] [A,CE] [A,CE] | [A,^A,^^CD^E^^F] [A,DF] [A,D=G] [A,DG] |$ %51
 [A,^A,^^CD^E=G] [=A,CE] [A,CE] [A,CE] | [^^F,A,^A,C^^CE^E^^F] [F,A,^C=EF] [F,A,CEF] [F,A,CEF] | %53
 [^^F,A,^A,C^^CE^E^^F] [=A,CE] [A,CE] [A,CE] | [A,^A,^^CD^E^^F] [A,DF] [A,D=G] [A,DG] |$ %55
 [A,^A,^^CD^E=G] [=A,CE] [A,CE] [A,CE] | [A,^A,C^^CE^E^^F] [A,^C=EF] [A,CEF] [A,CEF] | %57
 [^E,^A,C^^CE^^F] [=F,A,=D] [F,A,D] [F,A,D] | [^E,^^F,^A,^B,^^CE] [F,B,E] [F,B,E] [F,B,E] | %59
 [^E,^^F,A,^B,^^CE] [E,A,C] [E,A,C] [E,A,C] |$ [=F,^^F,A,^A,C^^CE] [F,A,^CE] [F,A,CE] [F,A,CE] | %61
 [^^F,A,^A,C^^CE^E] [=A,CE] [A,CE] [A,CE] | [A,^A,^^CD^E^^F] [A,DF] [A,D=G] [A,DG] | %63
 [A,^A,^^CD^E=G] [=A,CE] [A,CE] [A,CE] |$ [A,^^C^E] z z2 | [=D^E-A-=d-] [EAd] [C=EGc]2 | %66
 [EGBe]2 [D^^F^Ad]2 | [^^C-^E-A-^^c] [CEA] [^C=EG^c]2 |$ [EGBe]2 [D^^F^Ad] [DFAd] | %69
 [^^C^E-A-^^c-] [EAc] [^C=EG^c]2 | [EGBe]2 [D^^F^Ad]2 | [^^C-^E-A-^^c] [CEA] [^C=EG^c]2 |$ %72
 [EGBe]2 [D^^F^Ad] [DFAd] | [^^C^E-A-^^c-] [EAc] [^C=EG^c]2 | [EGBe]2 [D^^F^Ad]2 | %75
 [^^C-^E-A-^^c] [CEA] [^C=EG^c]2 |$ [EGBe]2 [D^^F^Ad] [DFAd] | [^^C^E-A-^^c-] [EAc] [^C=EG^c]2 | %78
 [EGBe]2 [D^^F^Ad]2 | [^E-A-^^c] [EA] [DF^A]2 |$ [EGB] [EGB] [EGB] [CEFGABc] | %81
 [=F,A,] z [E,G,C-] C | [E,A,=C-] C [F,B,-^^C-] [B,C] | [^E,A,-^^C-] [A,C] [^^F,^A,-E-] [A,E] |$ %84
 [^E,^A,^^C] [=G,A,^C] [A,^^C] [E,A,C] | [=F,-A,] F, [E,G,C]2 | [E,A,=C-] C [F,B,-^^C-] [B,C] | %87
 [^E,A,-^^C-^E-] [A,CE] [^^F,-^A,=E-^^F-] [F,EF] |$ [A,^^C^E] [A,^C=E^^F] [A,^^C^EA] [A,CEA] | %89
 [=F,A,] [F,A,^^C] [E,^E,G,A,^C^^C] [=E,G,^C] | [E,G,A,=C^C] [E,A,=C] [E,F,A,B,C^^C] [F,B,C] | %91
 [=F,^F,A,B,^^C] [^E,A,C] [E,^^F,A,^A,CE] [F,A,E] |$ %92
 [=F,^^F,A,^A,^^CE] [^E,F,=A,^C^^C] [F,A,^C^^C] [E,A,C] | %93
 [=F,A,^^C] [F,A,C] [E,^E,G,A,^C^^C] [=E,G,^C] | [E,G,A,=C^C] [E,A,=C] [E,F,A,B,C^^CF] [F,B,CF] |$ %95
 [=F,^F,A,B,^^C^EF] [^E,A,CE] [E,^^F,A,^A,C=E^E^^F] [F,A,=EF] | %96
 [^^F,A,^A,^^CE^E^^F] [=A,^C^^CEF] [A,^C^^CEFA] [A,C=FA] | [A,=D^EA] z z2 | z4 |$ z4 | z4 | z4 | %102
 z4 | z4 |$ z4 | [^^c^ea]2 [df^a]2 | [e^^fb]2 [^eg=c']2 | [fac']2 [^^f^a-^^c'] a |$ %108
 [gbd']2 [a-^be'-] [ae'] | [^ac'=f']2 [b^^c'^f']2 | [^bd'^^f']2 [c'e'g']2 |$ %111
 [=d'=f'a']2 [^d'^f'-^a'-] [f'a'] | [e'^^f'b'] [e'f'b'] [=f'g'=c''-] [f'g'c''] |$ z4 | z4 | z4 | %116
 z4 | z4 |$ z4 | z4 | z4 | [=F,A,^^C] [^E,A,C] [=E,^E,A,^C^^C] [=E,A,^C] |$ %122
 [E,A,=C^C] [E,A,=C] [E,F,A,B,C^^C] [F,B,C] | [^E,F,^A,B,^^C] [=F,A,=D] [E,^^F,A,^B,CE] [F,B,E] | %124
 [=F,^^F,A,=C^^CE] [^E,F,A,^C^^C] [E,F,A,^C^^C] [E,A,C] | %125
 [^E,A,^^C] [E,A,C] [=E,^E,G,A,^C^^C] [=E,G,^C] |$ %126
 [E,^^F,G,^B,C] [E,F,B,] [E,^F,^^F,=B,^B,^^C] [^F,=B,C] | %127
 [^E,F,^A,B,^^C^E] [=F,A,C=F] [E,^^F,A,^B,C=E^E^^F] [F,B,=EF] |$ %128
 [^^F,^B,^^CE^E^^F] [^C^^C=E^EF] [^C^^C=E^EFA] [CEA] | [B,^^CD^EA] [B,D] [G,B,^CD] [G,C] |$ %130
 [G,^A,C] [A,D] [A,=CD] [^B,D] | [B,^B,D] [=B,D] [B,D^E] [B,E] | %132
 [^A,B,^E] [A,B,^^C] [A,B,^C^^C] [A,=C^CD] |$ [B,=CD] [B,D] [G,B,^CD] [G,C] | %134
 [G,^A,C] [A,D] [A,=CD] [^B,D] |$ [B,^B,D] [=B,DF] [B,D^EF] [B,EG] | %136
 [B,D^EG] [D=FG] [F^FG^A] [FA] |$ [B,DF^A] [B,D] [G,B,CD] [G,C] | [G,^A,C] [A,D] [A,D] [=CD] | %139
 [^B,D] [=B,D] [B,D^E] [B,=F] |$ [^A,B,=F] [A,B,^^C] [A,B,^C^^C] [A,=C^CD] | %141
 [B,=CD] [B,D] [G,B,^CD] [G,C^a'] |$ [G,^A,C] [A,D] [A,D] [=CD] | [B,=CD] [B,DF] [B,D^EF] [B,EG] |$ %144
 [B,D^EG] [D-=FG] [DF^FG^A] [FA] | [^A,,D,F,DF^A] [A,,D,F,] [A,,D,F,] [A,,D,F,] | %146
 [^A,,B,,D,E,F,G,] [B,,E,G,] [B,,E,G,] [B,,E,G,] |$ %147
 [^A,,B,,D,E,F,G,] [A,,D,F,] [A,,D,F,] [A,,D,F,] | %148
 [^A,,B,,^^C,D,^E,F,] [B,,C,E,] [B,,C,E,] [B,,C,E,] | %149
 [^A,,B,,^^C,D,^E,F,] [A,,D,F,] [A,,D,F,] [A,,D,F,] | %150
 [^A,,B,,D,E,F,G,] [B,,E,G,] [B,,E,G,] [B,,E,G,] |$ %151
 [^A,,B,,D,E,F,G,] [A,,D,F,] [A,,D,F,] [A,,D,F,] | %152
 [^A,,B,,^^C,D,^E,F,] [B,,C,E,] [B,,C,E,] [B,,C,E,] | %153
 [B,,^^C,D,^E,F,] [B,,D,F,] [B,,D,F,] [B,,D,F,] | %154
 [G,,B,,C,D,^E,F,] [G,,C,=F,] [G,,C,F,] [G,,C,F,] |$ %155
 [F,,G,,^A,,C,D,=F,] [F,,A,,D,] [F,,A,,D,] [F,,A,,D,] | %156
 [F,,^A,,=D,^D,=F,G,] [=D,F,G,] [D,F,G,] [D,F,G,] | %157
 [^A,,=D,^D,=F,^F,G,] [A,,D,F,] [A,,D,F,] [A,,D,F,] | %158
 [^A,,B,,D,E,F,G,] [B,,E,G,] [B,,E,G,] [B,,E,G,] |$ %159
 [^A,,B,,D,E,F,G,] [A,,D,F,] [A,,D,F,] [A,,D,F,] | [^A,,C,D,F,G,] z [=C,F,] [A,,^E,] | z4 |$ z4 | %163
 z4 | z2 [^Bc^^cde]2- | [Bccde]4- | [Bccde]4- |$ [Bccde]4 | x4 | x4 | x4 | x4 | x4 |$ x4 |] %174
V:11
[K:E] z4 | z4 | z4 | z4 |$ z4 | z4 | z4 | z4 | z4 |$ z4 | z4 | z4 | z4 | z4 |$ z4 | z4 | z4 | z4 | %18
 z4 |$ z4 | z4 | z4 | z4 |$ z4 | z4 | z4 | z4 |$ z4 | z4 | [=FA]2 [E^G]2 | =B- [_A-B] [=GA_B-] B |$ %31
 z4 | z2 _B [=D^DE=F] | [=C^C] z z2 | z4 |$ z4 | z4 | z4 | z4 |$ z4 | z4 | =F z [=G-=ce-] [Ge] | %42
 [A=d-] d [=Bd-] d |$ [=FA] z [=G_B-] B | [=d=f] e [f-a] [=FAdf] | =F z [=G-=ce-] [Ge] | %46
 [A=d-] d [=Bd-] d |$ [=FA] z [=G_B-] B | [=FA] z z2 | z4 | z4 |$ z4 | z4 | z4 | z4 |$ z4 | z4 | %57
 z4 | z4 | z4 |$ z4 | z4 | z4 | z4 |$ z4 | z4 | z4 | z4 |$ z4 | z4 | z4 | z4 |$ z4 | z4 | z4 | %75
 z4 |$ z4 | z4 | z4 | z4 |$ z4 | z4 | z4 | z4 |$ z4 | z4 | z4 | z4 |$ z4 | z4 | z4 | z4 |$ z4 | %93
 z4 | z4 |$ z4 | z4 | z4 | z4 |$ z4 | z4 | z4 | z4 | z4 |$ z4 | z4 | z4 | z4 |$ z4 | %109
 [_b'^c''=f'']2 [=b'=d''^f'']2 | [=c''^d''=g'']2 [^c''e''^g'']2 |$ [=d''=f''a'']2 [_e''^f''_b'']2 | %112
 [e''=g''-=b''] [e''g''] [=f''^g''] [f''_a''=c'''] |$ z4 | z4 | z4 | z4 | z4 |$ z4 | %119
 [=F,_B,=D=F] [F,B,DF] [F,=G,B,=CDEF=G] [G,CEG] | %120
 [A,,,=G,A,=C=DE=F=GA] [A,,,A,^CDEFA] [A,CEFA] [A,DFA] | %121
 [=F,,A,,=D,A,=DA] [F,,A,,D,] [E,,F,,A,,^C,D,] [E,,A,,C,] |$ %122
 [E,,A,,=C,^C,] [E,,A,,=C,] [E,,^F,,A,,=B,,C,=D,] [F,,B,,D,] | %123
 [=F,,^F,,_B,,=B,,=D,] [=F,,_B,,D,] [F,,=G,,B,,=C,D,E,] [G,,C,E,] | %124
 [=G,,A,,=C,=D,E,] [A,,^C,D,E,] [A,,C,D,E,] [A,,D,] | [A,,=D,] [A,,D,] [^G,,A,,^C,D,] [_A,,C,] |$ %126
 [=G,,_A,,=C,_D,] [G,,C,] [^F,,G,,=B,,C,=D,] [F,,B,,D,] | %127
 [=F,,^F,,_B,,=B,,=D,] [=F,,_B,,D,] [F,,=G,,B,,=C,D,E,] [G,,C,E,] |$ %128
 [=G,,A,,=C,=D,E,=F,] [G,,A,,^C,D,E,F,] [G,,A,,C,D,E,F,] [A,,D,F,] | [A,,=D,=F,_G,] G, [F,G,] F, |$ %130
 [=F,^F,] F, [F,^G,] G, | [^D,^F,^G,] [D,F,] [D,F,G,] G, | [^F,^G,] [F,G,] G, _G, |$ %133
 _G, G, [=F,G,] F, | [=F,^F,] F, [_G,_A,] A, |$ [^D,^F,^G,] [D,F,] [D,_G,_A,] A, | %136
 [_A,_B,] [B,_C=D] [B,=B,D] _B, |$ [_G,_B,] G, [=F,G,] F, | [=F,^F,] F, [_G,_A,] A, | %139
 [^D,^F,^G,] [D,F,] [D,F,G,] G, |$ [^F,^G,] [F,G,] G, F, | _G, G, [=F,G,] F, |$ %142
 [=F,^F,] F, [F,^G,] G, | [^D,^F,^G,] [D,F,] [D,F,_A,] A, |$ [_A,_B,] [B,_C=D] [B,=B,D] _B, | %145
 [_B,,,_E,,_G,,_B,] [B,,,E,,G,,] [B,,,E,,G,,] [B,,,E,,G,,] | %146
 [_B,,,=B,,,_E,,=E,,_G,,^G,,] [B,,,E,,G,,] [B,,,E,,G,,] [B,,,E,,G,,] |$ %147
 [_B,,,=B,,,_E,,=E,,^F,,^G,,] [_B,,,_E,,_G,,] [B,,,E,,G,,] [B,,,E,,G,,] | %148
 [_B,,,=B,,,=D,,_E,,=F,,_G,,] [B,,,D,,F,,] [B,,,D,,F,,] [B,,,D,,F,,] | %149
 [_B,,,=B,,,=D,,_E,,=F,,^F,,] [_B,,,E,,_G,,] [B,,,E,,G,,] [B,,,E,,G,,] | %150
 [_B,,,=B,,,_E,,=E,,_G,,^G,,] [B,,,E,,G,,] [B,,,E,,G,,] [B,,,E,,G,,] |$ %151
 [_B,,,=B,,,_E,,=E,,^F,,^G,,] [_B,,,_E,,_G,,] [B,,,E,,G,,] [B,,,E,,G,,] | %152
 [_B,,,=B,,,=D,,_E,,=F,,_G,,] [B,,,D,,F,,] [B,,,D,,F,,] [B,,,D,,F,,] | %153
 [=B,,,=D,,^D,,=F,,^F,,] [B,,,D,,F,,] [B,,,D,,F,,] [B,,,D,,F,,] | %154
 [=B,,,_D,,^D,,=F,,^F,,] [_D,,=F,,] [D,,F,,] [D,,F,,] |$ %155
 [_G,,,_B,,,_D,,_E,,=F,,] [G,,,B,,,E,,] [G,,,B,,,E,,] [G,,,B,,,E,,] | %156
 [_G,,,_B,,,=D,,_E,,=F,,_A,,] [D,,F,,A,,] [D,,F,,A,,] [D,,F,,A,,] | %157
 [_B,,,=D,,_E,,=F,,^F,,_A,,] [B,,,E,,_G,,] [B,,,E,,G,,] [B,,,E,,G,,] | %158
 [_B,,,=B,,,_E,,=E,,_G,,^G,,] [B,,,E,,G,,] [B,,,E,,G,,] [B,,,E,,G,,] |$ %159
 [_B,,,=B,,,_E,,=E,,^F,,^G,,] [_B,,,_E,,_G,,] [B,,,E,,G,,] [B,,,E,,G,,] | %160
 [_B,,,_E,,_G,,_A,,] z G,, =F,, | z4 |$ z4 | z4 | z2 [=F^F=G^GA_B=B]2- | [FFGGABB]4- | %166
 [FFGGABB]4- |$ [FFGGABB]4 | x4 | x4 | x4 | x4 | x4 |$ x4 |] %174
V:12
[K:B] z4 | z4 | z4 | z4 |$ z4 | z4 | z4 | z4 | z4 |$ z4 | z4 | z4 | z4 | z4 |$ z4 | z4 | z4 | z4 | %18
 z4 |$ z4 | z4 | z4 | z4 |$ z4 | z4 | z4 | z4 |$ z4 | z4 | z4 | z4 |$ z4 | z z2 [B,=C^C=D] | %33
 [=A,^A,] z z2 | z4 |$ z4 | z4 | z4 | z4 |$ z4 | z4 | z4 | z4 |$ z4 | z4 | z4 | z4 |$ z4 | z4 | %49
 z4 | z4 |$ z4 | z4 | z4 | z4 |$ z4 | z4 | z4 | z4 | z4 |$ z4 | z4 | z4 | z4 |$ z4 | z4 | z4 | %67
 z4 |$ z4 | z4 | z4 | z4 |$ z4 | z4 | z4 | z4 |$ z4 | z4 | z4 | z4 |$ z4 | z4 | z4 | z4 |$ z4 | %85
 z4 | z4 | z4 |$ z4 | z4 | z4 | z4 |$ z4 | z4 | z4 |$ z4 | z4 | z4 | z4 |$ z4 | z4 | z4 | z4 | %103
 z4 |$ z4 | z4 | z4 | z4 |$ z4 | [_B,,,,_D,,,_B,,,_D,,=F,,]2 [=B,,,,^F,,,=B,,,^F,,]2 | %110
 [=C,,,_E,,,=G,,,=C,,_E,,=G,,]2 [^C,,,=E,,,^G,,,^C,,=E,,^G,,]2 |$ %111
 =F,,2 [^A,,,,^D,,,^F,,,^A,,,^D,,^F,,^A,,]2 | %112
 [B,,,,E,,,-=G,,,-B,,,-E,,-=G,,-B,,-] [B,,,,E,,,G,,,B,,,E,,G,,B,,] [=C,,,=F,,,-_A,,,-=C,,-_A,,-=C,-] [C,,,F,,,A,,,C,,A,,C,] |$ %113
 =D,2 E,2 | =F,2 =G, G,- | [=D,-G,] D, E,2 | =F,2- F, z | =D,2 E,2 |$ =F,2 =G, G, | z4 | z4 | %121
 [=F,,,=A,,,=D,,] [F,,,A,,,D,,] [E,,,F,,,A,,,^C,,D,,] [E,,,A,,,C,,] |$ %122
 [E,,,=A,,,=C,,_D,,] [E,,,A,,,C,,] [E,,,^F,,,A,,,B,,,C,,=D,,] [F,,,B,,,D,,] | %123
 [=F,,,^F,,,_B,,,=B,,,=D,,] [=F,,,_B,,,D,,] [E,,,F,,,=G,,,B,,,=C,,D,,] [E,,,G,,,C,,] | %124
 [E,,,=F,,,=G,,,=A,,,=C,,=D,,] [F,,,G,,,A,,,^C,,D,,] [G,,,A,,,C,,D,,] [A,,,D,,] | %125
 [=A,,,=D,,] [A,,,D,,] [^G,,,A,,,^C,,D,,] [G,,,C,,] |$ %126
 [=G,,,_A,,,=C,,^C,,] [G,,,=C,,] [^F,,,G,,,B,,,C,,] [F,,,B,,,] | %127
 [=F,,,^F,,,_B,,,=B,,,] [=F,,,_B,,,] [F,,,=G,,,B,,,=C,,] [G,,,C,,] |$ %128
 [=G,,,=A,,,=C,,=D,,=F,,] [G,,,A,,,^C,,D,,E,,F,,] [G,,,A,,,C,,D,,E,,F,,] [A,,,D,,F,,] | %129
 [=A,,,=D,,=F,,] ^F z F |$ ^D D z ^G | z _B z2 | _G =F z2 |$ z _G z G | _E ^D z ^G |$ z4 | z4 |$ %137
 z ^F z F | ^D D z ^G | z ^A z2 |$ z4 | z ^F z _G |$ _E E z _A | z _B z2 |$ z4 | z4 | z4 |$ z4 | %148
 z4 | z4 | z4 |$ z4 | z4 | z4 | z4 |$ z4 | z4 | z4 | z4 |$ z4 | z4 | z4 |$ z4 | z4 | %164
 z2 [=C^C=D^DE]2- | [CCDDE]4- | [CCDDE]4- |$ [CCDDE]4 | x4 | x4 | x4 | x4 | x4 |$ x4 |] %174
V:13
[K:B] z4 | z4 | z4 | z4 |$ z4 | z4 | z4 | z4 | z4 |$ z4 | z4 | z4 | z4 | z4 |$ z4 | z4 | z4 | z4 | %18
 z4 |$ z4 | z4 | z4 | z4 |$ z4 | z4 | z4 | z4 |$ z4 | z4 | z4 | z4 |$ z4 | z z2 [G,=A,^A,B,] | %33
 [F,=G,] z z2 | z4 |$ z4 | z4 | z4 | z4 |$ z4 | z4 | z4 | z4 |$ z4 | z4 | z4 | z4 |$ z4 | z4 | z4 | %50
 z4 |$ z4 | z4 | z4 | z4 |$ z4 | z4 | z4 | z4 | z4 |$ z4 | z4 | z4 | z4 |$ z4 | z4 | z4 | z4 |$ %68
 z4 | z4 | z4 | z4 |$ z4 | z4 | z4 | z4 |$ z4 | z4 | z4 | z4 |$ z4 | z4 | z4 | z4 |$ z4 | z4 | z4 | %87
 z4 |$ z4 | z4 | z4 | z4 |$ z4 | z4 | z4 |$ z4 | z4 | z4 | z4 |$ z4 | z4 | z4 | z4 | z4 |$ z4 | %105
 z4 | z4 | z4 |$ z4 | z4 | z4 |$ z4 | z4 |$ z4 | z4 | z4 | z4 | z4 |$ z4 | z4 | z4 | z4 |$ z4 | %123
 z4 | z4 | z4 |$ z4 | z4 |$ =A, [=G,A,] [G,A,] A, | [D,,=A,] D,, [C,,A,,] [C,,G,,] |$ %130
 [D,,G,,] [D,,A,,] [D,,A,,] D,, | D,, D,, z B,, | D,, A,, z [D,,A,,] |$ D,, D,, [C,,A,,] [C,,G,,] | %134
 [D,,G,,] [D,,A,,] [D,,A,,] D,, |$ D,, D,, z B,, | D,, A,, B,, [D,,A,,] |$ %137
 [D,,A,,] D,, [C,,A,,] [C,,G,,] | [D,,G,,] z D,, D,, | z z2 B,, |$ z z2 A,, | z2 [C,,A,,] C,, |$ %142
 z z2 D,, | z D,, z B,, |$ D,, A,, B,, [D,,A,,] | [A,,A,] A, A, A, | [A,B,] B, B, B, |$ %147
 [A,B,] A, A, A, | [G,A,B,] [G,B,] [G,B,] [G,B,] | [G,A,B,] A, A, A, | [A,B,] B, B, B, |$ %151
 [A,B,] A, A, A, | [G,A,B,] [G,B,] [G,B,] [G,B,] | [G,B,] B, B, B, | [G,B,] G, G, G, |$ %155
 [F,G,A,] [F,A,] [F,A,] [F,A,] | [F,A,B,] B, B, B, | [A,B,] A, A, A, | [A,B,] B, B, B, |$ %159
 [A,B,] A, A, A, | A, z z2 | z4 |$ z4 | z4 | z2 [=F,^F,=G,^G,=A,^A,B,]2- | [F,F,G,G,A,A,B,]4- | %166
 [F,F,G,G,A,A,B,]4- |$ [F,F,G,G,A,A,B,]4 | x4 | x4 | x4 | x4 | x4 |$ x4 |] %174
V:14
[K:A] z4 | z4 | z4 | z4 |$ z4 | z4 | z4 | z4 | z4 |$ z4 | z4 | z4 | z4 | z4 |$ z4 | z4 | z4 | z4 | %18
 z4 |$ z4 | z4 | z4 | z4 |$ z4 | z4 | z4 | z4 |$ z4 | z4 | z4 | z4 |$ z4 | z4 | z4 | z4 |$ z4 | %36
 z4 | z4 | z4 |$ z4 | z4 | z4 | z4 |$ z4 | z4 | z4 | z4 |$ z4 | z4 | z4 | z4 |$ z4 | z4 | z4 | %54
 z4 |$ z4 | z4 | z4 | z4 | z4 |$ z4 | z4 | z4 | z4 |$ z4 | z4 | z4 | z4 |$ z4 | z4 | z4 | z4 |$ %72
 z4 | z4 | z4 | z4 |$ z4 | z4 | z4 | z4 |$ z4 | z4 | z4 | z4 |$ z4 | z4 | z4 | z4 |$ z4 | z4 | z4 | %91
 z4 |$ z4 | z4 | z4 |$ z4 | z4 | z4 | z4 |$ z4 | z4 | z4 | z4 | z4 |$ z4 | z4 | z4 | z4 |$ z4 | %109
 z4 | z4 |$ z4 | z4 |$ z4 | z4 | z4 | z4 | z4 |$ z4 | z4 | z4 | z4 |$ z4 | z4 | z4 | z4 |$ z4 | %127
 z4 |$ z4 | z4 |$ z4 | z4 | z4 |$ z4 | z4 |$ z4 | z4 |$ z4 | z4 | z4 |$ z4 | z4 |$ z4 | z4 |$ z4 | %145
 z4 | z4 |$ z4 | z4 | z4 | z4 |$ z4 | z4 | z4 | z4 |$ z4 | z4 | z4 | z4 |$ z4 | z4 | z4 |$ z4 | %163
 z4 | z2 [=C,^C,D,_E,=E,]2- | [C,C,D,E,E,]4- | [C,C,D,E,E,]4- |$ [C,C,D,E,E,]4 | x4 | x4 | x4 | %171
 x4 | x4 |$ x4 |] %174
V:15
[K:A] _B,,,, B,,,, B,,,, B,,,, | A,,,,4 | z4 | _B,,,,4 |$ z4 | =C,,,4 | =C,,,4 | _B,,,,2 ^A,,,,2 | %8
 =C,,, C,,, [_B,,,,C,,,] B,,,, |$ [A,,,,-_B,,,,] A,,,, z2 | z4 | z4 | z4 | A,,,,2 z2 |$ A,,,,2 z2 | %15
 A,,,,2 A,,,,2 | A,,,, A,,,, A,,,, A,,,, | A,,,,2 z2 | z4 |$ z4 | z4 | z4 | z4 |$ z4 | z4 | %25
 B,,,,2 z2 | z4 |$ z4 | z4 | A,,,, z z2 | A,,,, z z2 |$ A,,,, z A,,,, z | A,,,, A,,,, A,,,, A,,,, | %33
 A,,,, z z2 | z4 |$ z4 | z4 | A,,,,4 | A,,,,4 |$ A,,,,2 A,,,,2 | A,,,, A,,,, A,,,, A,,,, | %41
 [A,,,,_B,,,] [A,,,,B,,,] A,,,, A,,,, | A,,,, A,,,, A,,,, A,,,, |$ A,,,, A,,,, A,,,, A,,,, | %44
 A,,,, A,,,, A,,,, A,,,, | [A,,,,_B,,,] [A,,,,B,,,] A,,,, A,,,, | A,,,, A,,,, A,,,, A,,,, |$ %47
 A,,,, A,,,, A,,,, A,,,, | A,,,, A,,,, A,,,, [A,,,,A,,] | A,,,, z z2 | z4 |$ z4 | z4 | z4 | z4 |$ %55
 z4 | z4 | _B,,,, z z2 | z4 | z4 |$ z4 | z4 | z4 | z4 |$ A,,,, z B,,,, A,,,, | %65
 z A,,,, A,,,, A,,,, | A,,,, A,,,, A,,,, A,,,, | z A,,,, A,,,, A,,,, |$ A,,,, A,,,, A,,,, A,,,, | %69
 z A,,,, A,,,, A,,,, | A,,,, A,,,, A,,,, A,,,, | z A,,,, A,,,, A,,,, |$ A,,,, A,,,, A,,,, A,,,, | %73
 z A,,,, A,,,, A,,,, | A,,,, A,,,, A,,,, A,,,, | z A,,,, A,,,, A,,,, |$ A,,,, A,,,, A,,,, A,,,, | %77
 z A,,,, A,,,, A,,,, | A,,,, A,,,, A,,,, A,,,, | A,,,,2 A,,,,2 |$ B,,,, B,,,, C,,, C,,, | %81
 A,,,, z z2 | z4 | A,,,, z z2 |$ z4 | A,,,,4 | A,,,,4 | A,,,,2 A,,,,2 |$ A,,,, A,,,, A,,,, A,,,, | %89
 A,,,, A,,,, A,,,, A,,,, | A,,,, A,,,, A,,,, A,,,, | A,,,, A,,,, A,,,, A,,,, |$ %92
 A,,,, A,,,, A,,,, A,,,, | A,,,, A,,,, A,,,, A,,,, | A,,,, A,,,, A,,,, A,,,, |$ %95
 A,,,, A,,,, A,,,, A,,,, | A,,,, A,,,, A,,,, A,,,, | [A,,,,D,,,D,,] [D,,,D,,] [D,,,D,,] [D,,,D,,] | %98
 [D,,,D,,] [D,,,D,,] [D,,,D,,] [D,,,D,,] |$ [D,,,D,,] [D,,,D,,] [D,,,D,,] [D,,,D,,] | %100
 [D,,,D,,] [D,,,D,,] [D,,,D,,] [D,,,D,,] | %101
 [D,,,A,,,D,,] [D,,,A,,,D,,] [D,,,A,,,D,,] [D,,,A,,,D,,] | %102
 [D,,,A,,,D,,] [D,,,A,,,D,,] [D,,,A,,,D,,] [D,,,A,,,D,,] | %103
 [D,,,A,,,D,,] [D,,,A,,,D,,] [D,,,A,,,D,,] [D,,,A,,,D,,] |$ %104
 [D,,,A,,,D,,] [D,,,A,,,D,,] [D,,,A,,,D,,] [D,,,A,,,D,,] | %105
 [D,,,D,,] [A,,,,D,,,A,,,D,,] [A,,,,D,,,A,,,D,,] [A,,,,D,,,A,,,D,,] | %106
 [A,,,,D,,,A,,,D,,] [A,,,,D,,,A,,,D,,] [A,,,,D,,,A,,,D,,] [A,,,,D,,,A,,,D,,] | %107
 [A,,,,D,,,A,,,D,,] [A,,,,D,,,A,,,D,,] [A,,,,D,,,A,,,D,,] [A,,,,D,,,A,,,D,,] |$ %108
 [A,,,,D,,,A,,,D,,] [A,,,,D,,,A,,,D,,] [A,,,,D,,,A,,,D,,] [A,,,,D,,,A,,,D,,] | %109
 [A,,,,D,,,=F,,,A,,,D,,] [A,,,,D,,,F,,,A,,,D,,] [A,,,,D,,,F,,,A,,,D,,] [A,,,,D,,,F,,,A,,,D,,] | %110
 [A,,,,D,,,=F,,,A,,,D,,] [A,,,,D,,,F,,,A,,,D,,] [A,,,,D,,,F,,,A,,,D,,] [A,,,,D,,,F,,,A,,,D,,] |$ %111
 [A,,,,D,,,=F,,,A,,,D,,A,,] [A,,,,D,,,F,,,A,,,D,,A,,] [A,,,,D,,,F,,,A,,,D,,=F,,A,,] [A,,,,D,,,F,,,A,,,D,,F,,A,,] | %112
 [A,,,,D,,,=F,,,A,,,D,,=F,,A,,D,] [A,,,,D,,,F,,,A,,,D,,F,,A,,D,=F,] [A,,,,D,,,F,,,A,,,D,,F,,A,,D,F,A,] [A,,,,D,,,F,,,A,,,D,,F,,A,,D,F,A,D] |$ %113
 [A,,,,D,,,=F,,,A,,,D,,=F,,A,,D,=F,A,D=FAd] z z2 | z4 | z4 | z4 | z4 |$ z4 | %119
 A,,,, A,,,, A,,,, A,,,, | A,,,, A,,,, A,,,, A,,,, | A,,,, A,,,, A,,,, A,,,, |$ %122
 A,,,, A,,,, A,,,, A,,,, | A,,,, A,,,, A,,,, A,,,, | A,,,, A,,,, A,,,, A,,,, | %125
 A,,,, A,,,, A,,,, A,,,, |$ A,,,, A,,,, A,,,, A,,,, | A,,,, A,,,, A,,,, A,,,, |$ %128
 A,,,, A,,,, A,,,, A,,,, | [A,,,,^A,,,,] A,,,, A,,,, A,,,, |$ ^A,,,, A,,,, A,,,, A,,,, | %131
 ^A,,,, A,,,, A,,,, A,,,, | ^A,,,, A,,,, A,,,, A,,,, |$ ^A,,,, A,,,, A,,,, A,,,, | %134
 ^A,,,, A,,,, A,,,, A,,,, |$ ^A,,,, A,,,, A,,,, A,,,, | ^A,,,, A,,,, A,,,, A,,,, |$ %137
 ^A,,,, A,,,, A,,,, A,,,, | ^A,,,, A,,,, A,,,, A,,,, | ^A,,,, A,,,, A,,,, A,,,, |$ %140
 ^A,,,, A,,,, A,,,, A,,,, | ^A,,,, A,,,, A,,,, A,,,, |$ ^A,,,, A,,,, A,,,, A,,,, | %143
 ^A,,,, A,,,, A,,,, A,,,, |$ ^A,,,, _B,,,, B,,,, B,,,, | _B,,,, z z2 | z4 |$ z4 | z4 | z4 | z4 |$ %151
 z4 | z4 | z4 | z4 |$ z4 | z4 | z4 | z4 |$ z4 | A,,,, z A,,,, A,,,, | x4 |$ x4 | x4 | x4 | x4 | %166
 x4 |$ x4 | x4 | x4 | x4 | x4 | x4 |$ x4 |] %174
V:16
[K:E] z4 | z4 | z4 | z4 |$ z4 | z4 | z4 | z4 | z4 |$ z4 | z4 | A [A=f'a'] [Gf'a'] [Ge'g'] | %12
 [Be'g'] [Bg'b'] [^Ag'b'] [A^^f'^a'] | [^^f'^a'] z z2 |$ z4 | A [A=f'a'] [Gf'a'] [Ge'g'] | %16
 B [Bg'b'] [^Ad'e'^^f'g'] z | z4 | z4 |$ [A^^c] [Ac^e'a'] [G^ce'a'] [Gc=e'g'] | %20
 [Bee'g'] [Beg'b'] [^Adg'b'] [Ad=g'^a'] | [^^f'^a'] z z2 | z4 |$ %23
 [A^^c] [Ac^e'a'] [G^c=f'a'] [Gc=e'g'] | [Bee'g'] [Beg'b'] [^Adg'b'] [Ad^^f'^a'] | [^^f'^a'] z z2 | %26
 z4 |$ [Be] [Bee'^^f'b'] [^Ade'f'b'] [Add'^f'^a'] | %28
 [cfd'f'^a'] [cff'a'c''] [^B^ef'a'c''] [=c=f=f'=a'^b'] | [^e'a'^b'] z z2 | z4 |$ %31
 ^^c [Ac^^c'^e'a'] [G^cc'e'a'] [c^c'=e'g'] | [ec'e'g'] [Bee'g'b'] [e'^^f'g'^a'b'] [^e'^f'^^f'g'] | %33
 [d'e'] z z2 | z4 |$ z4 | z4 | z4 | z4 |$ z4 | z4 | z4 | z4 |$ z4 | z4 | z4 | z4 |$ z4 | z4 | z4 | %50
 z [=d'-^^f'^a'd''-^^f''-^a''-] [d'd''f''a'']2- |$ [d'd''f''a''] z z2 | %52
 z [^^c'-^^f'^a'e''-=g''-^a''-] [c'e''g''a'']2- | [c'e''g''a''] z z2 | %54
 z [^^c'-^^f'^a'd''-^^f''-^a''-] [c'd''f''a'']2- |$ [c'd''f''a''] z z2 | %56
 z [^^c'-^^f'^a'e''-^^f''-^a''-] [c'e''f''a'']2- | [c'e''f''a''] z z2 | %58
 z [=d'-=g'=c''-^^f''-=c'''-] [d'c''f''c''']2- | [d'c''f''c'''] z z2 |$ %60
 z [=d'-=g'^a'-=g''-^a''-] [d'a'g''a'']2- | [d'a'g''a''] z z2 | %62
 z [^^c'-^^f'-^a'd''-=g''-^a''-] [c'-f'd''-g''-a''-]2 | [c'd''g''a''] z z2 |$ %64
 [^Be^^f] [^^c'^^c''] [=Bc^ec'c''] [^B=ec'c''] | [^^c'^e'] [a'^^c''] [c'e'] [a'c''] | %66
 [^^c'^e'] [a'^^c''] [c'e'] [a'c''] | z4 |$ z4 | [^^c'^e'] [a'^^c''] [c'e'] [a'c''] | %70
 [^^c'^e'] [a'^^c''] [c'e'] [a'c''] | z4 |$ z4 | [^^c'^e'] [a'^^c''] [c'e'] [a'c''] | %74
 [^^c'^e'] [a'^^c''] [c'e'] [a'c''] | z4 |$ z4 | [^^c'^e'] [a'^^c''] [c'e'] [a'c''] | %78
 [^^c'^e'] [a'^^c''] [c'e'] [a'c''] | [^^c'^e'] [a'^^c''] [c'e'] [a'c''] |$ %80
 [^^c'^e'] [a'^^c''] [c'e'] [a'c''] | z4 | z4 | z4 |$ z4 | z4 | z4 | z4 |$ z4 | z4 | z4 | z4 |$ %92
 z4 | z4 | z4 |$ z4 | z4 | z4 | z4 |$ z4 | z4 | z4 | z4 | z4 |$ z4 | z4 | z4 | z4 |$ z4 | z4 | %110
 z4 |$ z4 | z4 |$ z4 | z4 | z4 | z4 | z4 |$ z4 | z4 | z4 | z4 |$ z4 | z4 | z4 | z4 |$ z4 | z4 |$ %128
 z4 | z4 |$ z4 | z4 | z4 |$ z4 | z4 |$ z4 | z4 |$ z4 | z4 | z4 |$ z4 | z4 |$ z4 | z4 |$ z4 | z4 | %146
 z [e'g'b'e''-g''-b''-] [e''g''b'']2 |$ z4 | z [=f'g'b'=f''-g''-b''-] [f''g''b'']2 | z4 | %150
 z [e'g'b'e''-g''-b''-] [e''g''b'']2 |$ z4 | z [^e'g'b'^e''-g''-b''-] [e''g''b'']2 | z4 | %154
 z [^e'g'^e''-g''-] [e''g'']2 |$ z4 | z [=f'g'b'-=f''-g''-b''-] [b'-f''g''b'']2 | b' z z2 | %158
 z [e'g'b'e''-g''-b''-] [e''g''b'']2 |$ z4 | %160
 [c^egd'g'd''g''] [gd'g'd''g''] [A^^cfd'f'd''f''] [^A^c=fg^ad'g'^a'd''g''^a''] | =c''' z z2 |$ x4 | %163
 x4 | x4 | x4 | x4 |$ x4 | x4 | x4 | x4 | x4 | x4 |$ x4 |] %174
V:17
[K:E] z4 | z4 | z4 | z4 |$ z4 | z4 | z4 | z4 | z4 |$ z4 | z4 | a a [^ga] g | [^gb] b [^ab] a | %13
 ^a z z2 |$ z4 | a a [^ga] g | [^gb] b b z | z4 | z4 |$ a [=fa] [f^ga] [eg] | %20
 [e^gb] [gb] [g^ab] [=g_b] | [=g_b] z z2 | z4 |$ a [=fa] [f^ga] [eg] | [e^gb] [gb] [g^ab] [=g_b] | %25
 [=g_b] z z2 | z4 |$ b b [^ab] a | [^a^c'] c' [=c'_d'] c' | =c' z z2 | z4 |$ a a [^ga] g | %32
 [^gb] b [^ab] [=f^f=g^g] | [^de] z z2 | z4 |$ z4 | z4 | z4 | z4 |$ z4 | z4 | %41
 =F [A=d=f] [Ea] [A=ce] | [=Fa] [A=c=f] =D [=GB=d] |$ [=D^f] [=F=d] [=CE=f] [=G=ce] | %44
 [=D=F=g] [A^ce] [DFa] A | =F [A=d=f] [Ea] [A=ce] | [=Fa] [A=c=f] =D [=GB=d] |$ %47
 [=D^f] [=F=d] [=CE=f] [=G=ce] | [=F=g] [A^ce] [=DFa-] [A=d=fa] | =d z z2 | z4 |$ z4 | z4 | z4 | %54
 z4 |$ z4 | z4 | z4 | z4 | z4 |$ z2 [=c'=c''=c''']2 | z4 | z4 | z4 |$ =C,,, z _D,,, [C,,,E,,,] | %65
 z4 | z4 | z [=G=c=d] A [Gcd] |$ A [=G=c=d] A [cd] | A z z2 | z4 | z [=G=c=d] A [Gcd] |$ %72
 A [=G=c=d] A [cd] | A z z2 | z4 | z [=G=c=d] A [Gcd] |$ A [=G=c=d] A [cd] | A z z2 | z4 | %79
 z [=G=c=d] A [Gcd] |$ A [=G=c=d] A [Gcd] | A z z2 | z4 | z4 |$ z4 | z4 | z4 | z4 |$ z2 =C [=DE] | %89
 [=D=FA=d] [Ad=fa] [E=d'] [A^cfa] | ^c' [A=cea] [=D=c'] [^FB=d^f] | %91
 [=Db] [=F_B=f] [=CE_b] [=G=ce=g] |$ [=F=c'] [Aea] [A^c'] [F=d=fa] | %93
 [=F=f] [A=dfa] [E=d'] [A^cea] | [E^c'] [A=cea] [=D=c'] [^FB=d^f] |$ %95
 [^A,=Db] [_B=f] [=CE_b] [=ce=g] | [=F=c'] [A^ce] [=CF_d'] [=DE] | =F, z z2 | z4 |$ z4 | z4 | z4 | %102
 z4 | z4 |$ z4 | z4 | z4 | z4 |$ z4 | z4 | z4 |$ z4 | z4 |$ z4 | z4 | z4 | z4 | z4 |$ z4 | z4 | %120
 z2 [=C=D] [E=F] | [=D=FA=d] [Ad=fa] [E=d'=f'] [A^cea] |$ [=F^c'] [A=cea] [=c'e'] [^F=d^f] | %123
 [_B,b=d'] [=F_B_b] [=CEd'] [=G=ce=g] | [=D=F=c'e'] [A=de^c'] [Ae'] [Fd=f] | %125
 [=FA] [A=d=fa] [E=d'=f'] [A^cea] |$ [=F^c'] [A=cea] [=c'e'] [^F^f] | %127
 [b=d'] [_B_b] [=CEd'] [=ce=g] |$ e' [=de^c'] [=Ce'] [Ed=f] | %129
 [B,,,^D,,^F,,B,,=d] [F,,B,,^D,^F,^A,^D^F^A^d^f^a^d'] [^C,,=F,,A,,ad'^f'_b'_e''_g''] [F,,A,,^C,=F,_A,^C=F_A_d=f_a_d'] |$ %130
 [^A,,,^D,,^F,,^A,,^D,_a_d'=f'^g'^c''=f''] [A,,D,^F,^A,^D^F^A^d^f^a^d'] [_A,,,=C,,_E,,_A,,=C,ad'_g'_b'_e''_g''] [A,,C,_E,_A,=C_E_A=c_e_a=c'] | %131
 [^F,,,^A,,,^D,,^F,,_a=c'_e'^g'=c''_e''] [D,,F,,^A,,^D,^F,^A,^D^F^A^d^f^a] [=F,,,_A,,,_D,,=F,,_A,,_D,fa^d'_g'_b'e''] [A,,D,=F,^G,B,=F^GB=f^gb] | %132
 [^A,,,^D,,^F,,^A,,^gb=f'^g'b'=f''] [F,,A,,^D,^F,^A,^D^GB=d_ab_e'] [^A^c^f^ab^c'^d'f'b'=d''f''] [^F=c_e_ga=c'^c'^f'^a'^c''^f''] |$ %133
 [B,,,^D,,^F,,B,,^f=c'_e'_g'=c''_e''] [F,,B,,^D,^F,^A,^D^F^A^df^a^d'] [^C,,=F,,A,,ae'g'_b'e''_g''] [F,,A,,^C,=F,_A,_D=F_A_d=f_a_d'] | %134
 [^A,,,^D,,^F,,^A,,^D,_a_d'=f'^g'^c''=f''] [A,,D,^F,^A,^D^F^A^d^f^a^d'] [_A,,,=C,,_E,,_A,,=C,ad'^f'_b'_e''_g''] [A,,C,_E,_A,=C_E_A=c_e_a=c'] |$ %135
 [^F,,,^A,,,^D,,^F,,_a=c'_e'^g'=c''_e''] [D,,F,,^A,,^D,^F,^A,^D^F^A^d^f^a] [=F,,,_A,,,_D,,=F,,_A,,_D,f_be'_g'_b'e''] [A,,D,=F,^G,B,=F^GB=f^g=b] | %136
 [^A,,,^D,,^F,,^A,,^gb=f'^g'b'=f''] [_G,,_B,,=D,^D,=F,_B,=D=F^A^d_g_b_e'] [_E,^F,^A,^D^Fb=d'f'_b'=d''f''] [F,,A,,D,F,A,DFAd^f] |$ %137
 [^A,,,^D,,^F,,^A,,^D,^F,^A,^D^F^A^d] [A,,D,F,A,DFAd^f^a^d'^f'] [_B,,,=D,,=F,,_B,,d'_g'_b'_e''_g''] [F,,B,,=D,=F,_B,=D=F_B=d=f_b=d'] | %138
 [^A,,,^C,,^F,,^A,,_b=d'=f'^a'=d''=f''] [F,,A,,^C,^F,^A,^C^F^A^c^f^a^c'] [=G,,,=C,,_E,,=G,,ac'^f'_b'_d''_g''] [E,,G,,=C,_E,=G,=C_E=G=c_e=g=c'] | %139
 [^F,,,B,,,^D,,^F,,=g=c'_e'=g'=c''_e''] [D,,F,,B,,^D,^F,B,^D^FB^d^fb] [=F,,,_A,,,_D,,=F,,_A,,_D,fb^d'^f'b'^d''] [A,,D,=F,_A,_D=F_A_d=f_a_d'] |$ %140
 [^A,,,_E,,_G,,^A,,_a_d'=f'^g'^c''=f''] [_B,,_E,=F,_B,=D^A^d_g_b_e'] [Ad^f^a^d'f'_b'=d''f''] [^FAdfad'^f'^a'^d''^f''] | %141
 [^A,,,^D,,^F,,^A,,^D,^F,^f^a^d'^f'^a'^d''] [D,F,^A,^D^F^A^dfa-d'f'] [_B,,,=D,,=F,,_B,,=D,a_g'_b'_g''] [B,,D,=F,_B,=D=F_B=d=f_b=d'=f'] |$ %142
 [^A,,,^C,,^F,,^A,,^C,=d'=f'^a'=d''=f''] [A,,C,^F,^A,^C^F^A^c^f^a^c'^f'] [=G,,,=C,,_E,,=G,,=C,_d'_g'_b'_d''_g''] [G,,C,_E,=G,_A,=C=G=c_e=g=c'_e'] | %143
 [^F,,,B,,,^D,,^F,,B,,=c'_e'=g'=c''_e''] [F,,B,,^D,^F,B,^D^FB^d^fb^d'] [=F,,,_A,,,_D,,=F,,_A,,_D,=F,bd'^f'b'^d''] [D,F,_A,_D=F_A_d=f_a_d'=f'] |$ %144
 [^A,,,^D,,_G,,^A,,_d'=f'^g'^c''=f''] [G,,_B,,=D,_E,=F,_B,=D=F^A^d_g_b^d'] [E,^F,^A,^D^Fb=d'f'_b'=d''f''] [^F,,A,,^D,F,A,DFAd^f] | %145
 [^F,^A,^D^F^A^d] z z2 | x4 |$ x4 | x4 | x4 | x4 |$ x4 | x4 | x4 | x4 |$ x4 | x4 | x4 | x4 |$ x4 | %160
 x4 | x4 |$ x4 | x4 | x4 | x4 | x4 |$ x4 | x4 | x4 | x4 | x4 | x4 |$ x4 |] %174
V:18
 z4 | z4 | z4 | z4 |$ z4 | z4 | z4 | z4 | z4 |$ z4 | z4 | D z ^C z | E E ^D2 | D z ^C z |$ %14
 E E ^D z | D z ^C z | E E ^D2 | D z ^C z | E E ^D z |$ D z ^C z | E E ^D2 | D z ^C z | E E ^D2 |$ %23
 D z ^C z | E E ^D2 | E z ^D z | ^F F =F z |$ E z ^D z | ^F F =F2 | D z ^C z | E E ^D z |$ %31
 D z ^C z | z2 ^d [=d^def] | [c^c] z z2 | z4 |$ z4 | z4 | z4 | z4 |$ z4 | z4 | z F z F | D D z G |$ %43
 z A z2 | F E z2 | z F z F | D D z G |$ z A z2 | z4 | z4 | z4 |$ z4 | z4 | z4 | z4 |$ z4 | z4 | %57
 z4 | z4 | z4 |$ z4 | z4 | z4 | z4 |$ z2 _D, C, | z4 | z4 | d' [f'a'd''] [d'f'a'] [f'a'd''] |$ %68
 [d'f'a'] [f'a'd''] [d'f'a'] [f'a'd''] | [f'a'] z z2 | z4 | d' [f'a'd''] [d'f'a'] [f'a'd''] |$ %72
 [d'f'a'] [f'a'd''] [d'f'a'] [f'a'd''] | [f'a'] z z2 | z4 | d' [f'a'd''] [d'f'a'] [f'a'd''] |$ %76
 [d'f'a'] [f'a'd''] [d'f'a'] [f'a'd''] | [f'a'] z z2 | z4 | z [gc'd'] a [gc'd'] |$ %80
 a [gc'd'] a [gc'd'] | a z z2 | z4 | z4 |$ [efbd'e'f'] [fb_d'=d'f'] [fb-_d'=d'-f'-] [bd'f'] | z4 | %86
 z4 | z4 |$ z4 | z4 | z4 | z4 |$ z4 | z4 | z4 |$ z4 | z4 | z4 | z4 |$ z4 | z4 | z4 | z4 | z4 |$ %104
 z4 | z4 | z4 | z4 |$ z4 | z4 | z4 |$ z4 | z4 |$ z4 | z4 | z4 | z4 | z4 |$ z4 | z4 | z4 | %121
 d' a' e' a' |$ f' [f'g'] [g'a'] =b' | d'' [a'd''] [e''f''] [d''e''f''] | %124
 [a'c''] [g'c''] [f'-a'] f' | [d'^d'e'] a' e' a' |$ f' [f'g'] [g'a'] [=b'c''d''e''f''g''a''=b''] | %127
 d'' [a'd''] [e''f''] [d''e''f''] |$ [a'-c''d''-] [a'd'']2 z | z4 |$ z4 | z4 | z4 |$ z4 | z4 |$ %135
 z4 | z4 |$ z4 | z4 | z4 |$ z4 | z4 |$ z4 | z4 |$ z4 | z4 | [^d'^d'']4 |$ z4 | [^d'^d'']4 | z4 | %150
 [^d'^d'']4 |$ z4 | [^d'^d'']4 | z4 | [^d'^c''] [d'c'']2- [d'c''] |$ z4 | %156
 [^d'^d'']2- [^c'd'^c''d'']2 | z4 | [^d'^d'']4 |$ x4 | x4 | x4 |$ x4 | x4 | x4 | x4 | x4 |$ x4 | %168
 x4 | x4 | x4 | x4 | x4 |$ x4 |] %174
V:19
 z4 | z4 | z4 | z4 |$ z4 | z4 | z4 | z4 | z4 |$ z4 | z4 | z4 | z4 | z4 |$ z4 | z4 | z4 | z4 | z4 |$ %19
 z4 | z4 | z4 | z4 |$ z4 | z4 | z4 | z4 |$ z4 | z4 | z4 | z4 |$ z4 | z z2 [=B=c^cd] | [A^A] z z2 | %34
 z4 |$ z4 | z4 | z4 | z4 |$ z4 | z4 | D,, D,, [=C,,A,,] [C,,=G,,] | %42
 [D,,=G,,] [D,,A,,] [D,,A,,] D,, |$ D,, D,, z _B,, | D,, A,, z [D,,A,,] | %45
 D,, D,, [=C,,A,,] [C,,=G,,] | [D,,=G,,] [D,,A,,] [D,,A,,] D,, |$ D,, D,, z _B,, | %48
 D,, A,, _B,, [D,,A,,] | [A,,D,] A,, z D, | [D,_E,-] E, E, E, |$ [D,_E,] A,, z D, | %52
 [^C,-D,] C, C, [C,E,] | [^C,D,] A,, z D, | [D,_E,-] E, E, E, |$ [D,_E,] A,, z D, | %56
 [^C,-D,] C, C, [C,E,] | [^A,,^C,] ^E,, z A,, | [^A,,=C,-] C, C, C, | [A,,=C,] D,, A,, A,, |$ %60
 [A,,_B,,-] B,, B,, [B,,E,] | [_B,,D,] A,, z D, | [D,^D,-] D, _E, E, | [D,_E,] A,, z D, |$ %64
 [D,=G,] z ^G, A, | z4 | z4 | a [=c'd'] [=fad'] [c'd'] |$ [=fad'] [=c'd'] [fad'] [c'd'] | d' z z2 | %70
 z4 | a [=c'd'] [=fad'] [c'd'] |$ [=fad'] [=c'd'] [fad'] [c'd'] | d' z z2 | z4 | %75
 a [=c'd'] [=fad'] [c'd'] |$ [=fad'] [=c'd'] [fad'] [c'd'] | d' z z2 | z4 | z2 d z |$ d z d z | %81
 z4 | z4 | z4 |$ z4 | z4 | z4 | z4 |$ z4 | z4 | z4 | z4 |$ z4 | z4 | z4 |$ z4 | z4 | %97
 z [=G,=CD] A, [G,CD] | A, [=CD] A, [=G,CD] |$ A, z z2 | z4 | z [=G,=CD] A, [G,CD] | %102
 A, [=CD] A, [=G,CD] | A, z z2 |$ z4 | z4 | z4 | z4 |$ z4 | z [=G,=CD] A, [G,CD] | %110
 A, [=G,=CD] A, [G,CD] |$ A, z z2 | z4 |$ z4 | z4 | z4 | z4 | z4 |$ z4 | z4 | z4 | z4 |$ z4 | z4 | %124
 z4 | z4 |$ z4 | z4 |$ z4 | z4 |$ z4 | z4 | z4 |$ z4 | z4 |$ z4 | z4 |$ z4 | z4 | z4 |$ z4 | z4 |$ %142
 z4 | z4 |$ z4 | [^f'^a'^d''-] [f'a'd''-] [f'a'd''-] [f'a'd''] | [^f'^a'] z z2 |$ x4 | x4 | x4 | %150
 x4 |$ x4 | x4 | x4 | x4 |$ x4 | x4 | x4 | x4 |$ x4 | x4 | x4 |$ x4 | x4 | x4 | x4 | x4 |$ x4 | %168
 x4 | x4 | x4 | x4 | x4 |$ x4 |] %174
V:20
[K:A] z4 | z4 | z4 | z4 |$ z4 | z4 | z4 | z4 | z4 |$ z4 | z4 | z4 | z4 | z4 |$ z4 | z4 | z4 | z4 | %18
 z4 |$ z4 | z4 | z4 | z4 |$ z4 | z4 | z4 | z4 |$ z4 | z4 | z4 | z4 |$ z4 | z z2 [GA^AB] | %33
 [F=G] z z2 | z4 |$ z4 | z4 | z4 | z4 |$ z4 | z4 | z4 | z4 |$ z4 | z4 | z4 | z4 |$ z4 | z4 | z4 | %50
 z4 |$ z4 | z4 | z4 | z4 |$ z4 | z4 | z4 | z4 | z4 |$ z4 | z4 | z4 | z4 |$ z4 | z4 | z4 | %67
 =f [=gad'] [da] [gad'] |$ [da] [=gad'] [da] [gad'] | a z z2 | z4 | =f [=gad'] [da] [gad'] |$ %72
 [da] [=gad'] [da] [gad'] | a z z2 | z4 | =f [=gad'] [da] [gad'] |$ [da] [=gad'] [da] [gad'] | %77
 a z z2 | z4 | z4 |$ z4 | z4 | z4 | z4 |$ z4 | z4 | z4 | z4 |$ z4 | z4 | z4 | z4 |$ z4 | z4 | z4 |$ %95
 z4 | z4 | z4 | z4 |$ d [=G=cd=g=c'd'] [Ada] [Gcdgc'd'] | [Ada] [=G=cd=g=c'd'] [Ada] [Gcdgc'd'] | %101
 [Aa] z z2 | z4 | d [=G=cd=g=c'd'] [Aa] [Gcdgc'd'] |$ [Ada] [=G=cd=g=c'd'] [Ada] [Gcdgc'd'] | %105
 [Aa] z z2 | z4 | d [=G=cd=g=c'd'] [Aa] [Gcdgc'd'] |$ [Ada] [=G=cd=g=c'd'] [Ada] [Gcdgc'd'] | %109
 [Aa] z z2 | z4 |$ z [=G=cd=g=c'd'] [Aa] [Gcdgc'd'] | [Aa] [=G=cd=g=c'd'] [Aa] [gc'd'] |$ a z z2 | %114
 z4 | z4 | z4 | z4 |$ z4 | z4 | z4 | z4 |$ z4 | z4 | z4 | z4 |$ z z2 D | z4 |$ z4 | z4 |$ z4 | z4 | %132
 z4 |$ z4 | z4 |$ z4 | z4 |$ z4 | z4 | z4 |$ z4 | z4 |$ z4 | z4 |$ z4 | [^a^d'] [ad'] [ad'] [ad'] | %146
 [^a^d'] z z2 |$ x4 | x4 | x4 | x4 |$ x4 | x4 | x4 | x4 |$ x4 | x4 | x4 | x4 |$ x4 | x4 | x4 |$ %162
 x4 | x4 | x4 | x4 | x4 |$ x4 | x4 | x4 | x4 | x4 | x4 |$ x4 |] %174
V:21
[K:A] z4 | z4 | z4 | z4 |$ z4 | z4 | z4 | z4 | z4 |$ z4 | z4 | z4 | z4 | z4 |$ z4 | z4 | z4 | z4 | %18
 z4 |$ z4 | z4 | z4 | z4 |$ z4 | z4 | z4 | z4 |$ z4 | z4 | z4 | z4 |$ z4 | z2 =G [G^GA_B] | %33
 [=F^F] z z2 | z4 |$ z4 | z4 | z4 | z4 |$ z4 | z4 | z4 | z4 |$ z4 | z4 | z4 | z4 |$ z4 | z4 | z4 | %50
 z4 |$ z4 | z4 | z4 | z4 |$ z4 | z4 | z4 | z4 | z4 |$ z4 | z4 | z4 | z4 |$ z4 | z4 | z4 | z4 |$ %68
 z4 | z4 | z4 | z4 |$ z4 | z4 | z4 | z4 |$ z4 | z4 | z4 | z4 |$ %80
 z2 [a'_b'=c''d''] [^fa_b=c'd'e'=f'=g'] | [^G=B^de] z z2 | z4 | z4 |$ z4 | z4 | z4 | z4 |$ z4 | %89
 z4 | z4 | z4 |$ z4 | z4 | z4 |$ z4 | z4 | z4 | z4 |$ z4 | z4 | z4 | z4 | z4 |$ z4 | %105
 A,,,, [_B,,,,=B,,,,] [=C,,,^C,,,D,,,] [^D,,,E,,,=F,,,^F,,,] | %106
 [=G,,,^G,,,A,,,_B,,,] [=B,,,=C,,^C,,D,,] [^D,,E,,^F,,] [=G,,^G,,A,,_B,,] | %107
 [=B,,=C,] z2 [^G,A,_B,=B,] |$ [=C^CD^D] [E=F^F=G] [^GA_B=B] [=c^cd^d] | %109
 [e=f^f=g] [^ga_b=b] [=c'^c'd'^d'] [e'=f'^f'=g'] | %110
 [^g'a'_b'=b'] [=c''^c''d''^d''] [e''=f''^f''=g''] [^g''a''_b''=b''] |$ %111
 [=f''^f''=g''^g''a''_b''=b''=c'''] [a'_b'=b'=c''^c''d''^d''e''] [^c'd'^d'e'=f'^f'=g'^g'] [=f^f=g^ga_b=b=c'] | %112
 [A_B=B=c^cd^de] [^CD^DE=F^F=G^G] [=F,^F,=G,A,_B,=B,=C] [A,,_B,,=B,,=C,^C,D,^D,E,] |$ %113
 [E,,=F,,^F,,=G,,^G,,] z z2 | z4 | z4 | z4 | z4 |$ z4 | z4 | z4 | z4 |$ z4 | z4 | z4 | z4 |$ %126
 z2 [=B,,,,=C,,,D,,,E,,,=F,,,=G,,,A,,,=B,,,=C,,D,,] [E,,=F,,=G,,A,,=B,,=C,D,E,=F,=G,A,=B,] | z4 |$ %128
 z4 | z4 |$ z4 | z4 | z4 |$ z4 | z4 |$ z4 | z4 |$ z4 | z4 | %139
 z [=b=c'^c'd'] [^d'e'=f'^f'=g'^g'a'_b'] [=b'=c''^c''d''^d''e''=f''^f''] |$ %140
 [_g'_b'_g''=g''^g''a''_b''] [=f'^f'_a'b'e''_g''_a''b''] [^d'=f'^f'^g'^d''e''g''^g''] [=d'=f'=d''_e''=f''_g''] | %141
 [_bd'_e'=f'_b'd''_e''-=f''] e'' z2 |$ _b' z z2 | z4 |$ z4 | [_e-^f] [e-f] [e-f] [ef] | ^f z z2 |$ %147
 x4 | x4 | x4 | x4 |$ x4 | x4 | x4 | x4 |$ x4 | x4 | x4 | x4 |$ x4 | x4 | x4 |$ x4 | x4 | x4 | x4 | %166
 x4 |$ x4 | x4 | x4 | x4 | x4 | x4 |$ x4 |] %174
V:22
[K:E] z4 | z4 | z4 | z4 |$ z4 | z4 | z4 | z4 | z4 |$ z4 | z4 | z4 | z4 | z4 |$ z4 | z4 | z4 | z4 | %18
 z4 |$ z4 | z4 | z4 | z4 |$ z4 | z4 | z4 | z4 |$ z4 | z4 | z4 | z4 |$ z4 | z2 D [^^FGA] | D z z2 | %34
 z4 |$ z4 | z4 | z4 | z4 |$ z4 | z4 | z4 | z4 |$ z4 | z4 | z4 | z4 |$ z4 | z4 | z4 | z4 |$ z4 | %52
 z4 | z4 | z4 |$ z4 | z4 | z4 | z4 | z4 |$ z4 | z4 | z4 | z4 |$ z4 | z4 | z4 | z4 |$ z4 | z4 | z4 | %71
 z4 |$ z4 | z4 | z4 | z4 |$ z4 | z4 | z4 | z4 |$ z4 | z4 | z4 | z4 |$ z4 | z4 | z4 | z4 |$ z4 | %89
 z4 | z4 | z4 |$ z4 | z4 | z4 |$ z4 | z4 | z4 | z4 |$ z4 | z4 | z4 | z4 | z4 |$ z4 | %105
 [^^C,,^^C,] z [D,,D,] z | E, [E,,E,] [^E,,^E,] z | [F,,F,] z [=G,,=G,] z |$ %108
 [G,,G,] [G,,G,] [A,,A,] z | [^A,,^A,] z [B,,B,] z | [=C,=C] [^B,,^B,] [^C,^C] z |$ %111
 [^^C,^^C] z [D,D] z | [E,E] [E,E] [=F=f] z |$ z4 | z4 | z4 | z4 | z4 |$ z4 | z4 | z4 | z4 |$ z4 | %123
 z4 | z4 | z4 |$ z4 | z4 |$ z4 | %129
 [F^Ad] [f^ad'f'^a'd''f''] [=D=FA=da'd''f''^a''] [=fa=d'=f'a'=d''=f''a''] |$ %130
 [C=F^Ac=f'^a'=d''=f''] [=f^ac'f'a'c''f''^a''] [D=GAf'a'c''f''] [=cd=ga=g'a'^b'^d''=g''a''] | %131
 [B,DFB=c'd'^^f'^a'] [dfbd'^f'b'd''f''] [C=FBcb'd''f''b''] [=fb^c'=f'b'c''=f''b''] | %132
 [DF^Ad^e'b'c''^e''] [=FG=d=f^f^ad'f'^a'd''f''^a''] [^FAcfg=d'=f'g'=d''=f''g''] [DFA^dfac'^f'a'c''^f''a''] |$ %133
 [^a=c'f'=c''] z z2 | z4 |$ z4 | %136
 [F^Ad] [G=c=f^f^ad'f'^a'd''-f''^a''] [FAdfg=c'=f'g'=c''d''=f''g''=c'''] [DAdfad'^f'a'd''^f''a''] |$ %137
 [F,^A,DF^Ad^ad'f'^a'd''] [Adfad'f'a'd''f''] [=F,A,=D=FA=dd'f'a'd''f''^a''] [Ad=fa=d'=f'a'=d''=f''a''] | %138
 [=F,^A,C=F^Ac^a=d'=f'^a'=d''=f''] [Ac=fac'f'a'c''f''^a''] [D,=G,=CD=GAac'f'a'c''f''] [GA=cd=ga^d'=g'a'=c''^d''=g''a''] | %139
 [D,F,B,DFB^Bd=g^a=c'd'=g'^a'] [F=Bdfbd'f'b'd''f''] [^E,B,C=FBcd'f'b'd''f''b''] [Bc=fb^c'^e'b'c''=f''b''] |$ %140
 [F,^A,DF^Adbc'^e'b'c''=f''] [=C=FGA=cd=f^f^ad'f'^a'd''^f''^a''] [A,D^FAcd=f^fg=c'=f'g'=c''=f''g''=c'''] [F,A,DFAdfad'^f'a'd''^f''a''] | %141
 [F,^A,DF^Adf^ad'f'^a'd''] [Adfad'f'a'd''f''] [=F,A,=D=FA=dd'-f'a'd''-f''^a''] [Ad=fa=d'd'-=f'a'=d''d''-=f''a''] |$ %142
 [=F,^A,C=F^Ac^a=d'd'-=f'^a'=d''d''-=f''] [Ac=fac'd'-f'a'c''d''-f''^a''] [=G,A,=CD=GAac'd'f'a'c''d''f''] [GA=cd=ga^d'=g'a'=c''^d''=g''a''] | %143
 [F,B,DFBd^^f^a^bd'=g'^a'] [FBd^f=bd'f'b'd''f''] [^E,B,C^EBcd'f'b'd''f''b''] [Bc=fbc'^e'b'c''^e''b''] |$ %144
 [F,^A,DF^Adbc'^e'b'c''^e''] [G,=C=FGA=cd=f^f^ad'f'^a'd''f''^a''] [A,D^FAcd=f^fg=c'=f'g'=c''=f''g''=c'''] [F,A,DFAdfad'^f'a'd''^f''a''] | %145
 [df^ad'f'^a'd''] z z2 | x4 |$ x4 | x4 | x4 | x4 |$ x4 | x4 | x4 | x4 |$ x4 | x4 | x4 | x4 |$ x4 | %160
 x4 | x4 |$ x4 | x4 | x4 | x4 | x4 |$ x4 | x4 | x4 | x4 | x4 | x4 |$ x4 |] %174
V:23
[K:E] z4 | z4 | z4 | z4 |$ z4 | z4 | z4 | z4 | z4 |$ z4 | z4 | z4 | z4 | z4 |$ z4 | z4 | z4 | z4 | %18
 z4 |$ z4 | z4 | z4 | z4 |$ z4 | z4 | z4 | z4 |$ z4 | z4 | z4 | z4 |$ z4 | z2 ^A, z | z4 | z4 |$ %35
 z4 | z4 | z4 | z4 |$ z4 | z4 | z4 | z4 |$ z4 | z4 | z4 | z4 |$ z4 | z4 | z4 | z4 |$ z4 | z4 | z4 | %54
 z4 |$ z4 | z4 | z4 | z4 | z4 |$ z4 | z4 | z4 | z4 |$ z4 | z4 | z4 | z4 |$ z4 | z4 | z4 | z4 |$ %72
 z4 | z4 | z4 | z4 |$ z4 | z4 | z4 | z4 |$ z4 | z4 | z4 | z4 |$ z4 | z4 | z4 | z4 |$ z4 | z4 | z4 | %91
 z4 |$ z4 | z4 | z4 |$ z4 | z4 | z4 | z4 |$ z4 | z4 | z4 | z4 | z4 |$ z4 | %105
 ^^G,,, [^A,,,B,,,] [^B,,,C,,] [^^C,,D,,] | [^^D,,=F,,] [^F,,=G,,] [^G,,^^G,,] [^A,,B,,] | %107
 [^B,,C,] [^^C,D,] [^^D,^E,] [F,^^F,] |$ ^^G, [^A,B,] [^B,C] [^^CD] | =E [F^^F] [G^^G] [^AB] | %110
 c [^^cd] [^^d^e] [f^^f] |$ g [^ab] [^bc'] [^^c'd'] | %112
 [=e'=f'] ^f' [^^gb^b^^c'^^d'^e'^^f'g'=a'] [^E,^^F,^^G,B,^B,^^C^^D^E^^F^^GB^B^^c^^d^e^^f] |$ %113
 [^^D,,^^F,,^^G,,B,,^B,,^^C,^^D,] z z2 | z4 | z4 | z4 | z4 |$ z4 | z4 | z4 | z4 |$ z4 | z4 | z4 | %125
 z4 |$ z4 | z4 |$ %128
 [=c'^c'=d'^d'] [=e'=f'^f'^^f'g'^^g'^a'b'] [^b'c''^^c''d''=e''=f''^f''^^f''] [f'^g'^^g'a'=b'^b'^c''=d''^d''e''^e''^f''^^f''g''^^g''^a''b''^b''] | %129
 [=C^C=D^D=E=F^F^^FG^^G^AB^Bc^^cd=e=f^f^^fg^^g^ab^bc'=d'^d'=e'=f'^f'] z z2 |$ z4 | z4 | z4 |$ z4 | %134
 z4 |$ z4 | z4 |$ z4 | z4 | z4 |$ z4 | z4 |$ z4 | z4 |$ z4 | [F^A] [FA] [FA] z | x4 |$ x4 | x4 | %149
 x4 | x4 |$ x4 | x4 | x4 | x4 |$ x4 | x4 | x4 | x4 |$ x4 | x4 | x4 |$ x4 | x4 | x4 | x4 | x4 |$ %167
 x4 | x4 | x4 | x4 | x4 | x4 |$ x4 |] %174
V:24
[K:B] z4 | z4 | z4 | z4 |$ z4 | z4 | z4 | z4 | z4 |$ z4 | z4 | z4 | z4 | z4 |$ z4 | z4 | z4 | z4 | %18
 z4 |$ z4 | z4 | z4 | z4 |$ z4 | z4 | z4 | z4 |$ z4 | z4 | z4 | z4 |$ z4 | z2 ^E,, z | z4 | z4 |$ %35
 z4 | z4 | z4 | z4 |$ z4 | z4 | z4 | z4 |$ z4 | z4 | z4 | z4 |$ z4 | z4 | z4 | z4 |$ z4 | z4 | z4 | %54
 z4 |$ z4 | z4 | z4 | z4 | z4 |$ z4 | z4 | z4 | z4 |$ z4 | z4 | z4 | z4 |$ z4 | z4 | z4 | z4 |$ %72
 z4 | z4 | z4 | z4 |$ z4 | z4 | z4 | z4 |$ z4 | z4 | z4 | z4 |$ z4 | z4 | z4 | z4 |$ z4 | z4 | z4 | %91
 z4 |$ z4 | z4 | z4 |$ z4 | z4 | z4 | z4 |$ z4 | z4 | z4 | z4 | z4 |$ z4 | z4 | z4 | z4 |$ z4 | %109
 z [f^^f] [g^^g] [ab] | [=c'^c'] [=d'^d'] [e'^e'] [f'^^f'] |$ %111
 [g'^^g'] [a'b'] [=c''^c''] [=d''^d''] | [e''^e''] [f''^^f''] g'' z |$ z4 | z4 | z4 | z4 | z4 |$ %118
 z4 | z4 | z4 | z4 |$ z4 | z4 | z4 | z4 |$ z4 | z4 |$ z4 | z4 |$ z4 | z4 | z4 |$ z4 | z4 |$ z4 | %136
 z4 |$ z4 | z4 | z4 |$ z4 | z4 |$ z4 | z4 |$ z4 | A, [F,A,] [F,A,] F, | F, z z2 |$ z4 | z4 | z4 | %150
 z4 |$ z4 | z4 | z4 | z4 |$ z4 | z4 | z4 | z4 |$ z4 | G,, z z2 | x4 |$ x4 | x4 | x4 | x4 | x4 |$ %167
 x4 | x4 | x4 | x4 | x4 | x4 |$ x4 |] %174
V:25
[K:B] z4 | z4 | z4 | z4 |$ z4 | z4 | z4 | z4 | z4 |$ z4 | z4 | z4 | z4 | z4 |$ z4 | z4 | z4 | z4 | %18
 z4 |$ z4 | z4 | z4 | z4 |$ z4 | z4 | z4 | z4 |$ z4 | z4 | z4 | z4 |$ z4 | z4 | z4 | z4 |$ z4 | %36
 z4 | z4 | z4 |$ z4 | z4 | z4 | z4 |$ z4 | z4 | z4 | z4 |$ z4 | z4 | z4 | z4 |$ z4 | z4 | z4 | %54
 z4 |$ z4 | z4 | z4 | z4 | z4 |$ z4 | z4 | z4 | z4 |$ z4 | z4 | z4 | z4 |$ z4 | z4 | z4 | z4 |$ %72
 z4 | z4 | z4 | z4 |$ z4 | z4 | z4 | z4 |$ z4 | z4 | z4 | z4 |$ z4 | z4 | z4 | z4 |$ z4 | z4 | z4 | %91
 z4 |$ z4 | z4 | z4 |$ z4 | z4 | z4 | z4 |$ z4 | z4 | z4 | z4 | z4 |$ z4 | z4 | z4 | z4 |$ z4 | %109
 z4 | z4 |$ z2 [^^f'g'=a'] [^a'b'^b'c''] | [^^c''d''e''^e''] [f''^^f''g''=a''] [^a''b''] z |$ z4 | %114
 z4 | z4 | z4 | z4 |$ z4 | z4 | z4 | z4 |$ z4 | z4 | z4 | z4 |$ z4 | z4 |$ z4 | %129
 z [Fd] [F^A=df^a] [=Fd] |$ [=f=d'] [F^Ac] [Ff^a] [=Gd] | [^^F^B^^f] [D,^F=B] [D,FBd^f] [^E,GB] | %132
 [^E,GB^e] [=F^F^A^^c] [=F=fg] [^FA] |$ z [Fd] [^A,F^Adfd'] [=F=d] | %134
 [^A=d=f=d'] [=F^FAc] [=Ffc'] [=G^d] |$ [^^F=cd^^f] B [Bd] B | [B^e] [^A^^c] [Aeg] z |$ %137
 z [DFd] [^A,F^A=df^a] [=Fd] | [=f=d'] [F^Ac] [Ff^a] [D=Gd] | %139
 [D=G=c=g] [D,DF] [D,FBdf] [^E,C^E^GB] |$ [=F,GB^e] [D=F^F^A=d] [=F=fg] [D^FA] | %141
 D [DFd] [^A,F^Adfd'] [=F=d] |$ [^A=d=f=d'] [=F^FAc] [=Ffc'] [=G^d] | [^^F^Bd^^f] =B [Bd] [CGB] |$ %144
 [=F,GB=f] [G,F^A^^c] [G,Afg] F | x4 | x4 |$ x4 | x4 | x4 | x4 |$ x4 | x4 | x4 | x4 |$ x4 | x4 | %157
 x4 | x4 |$ x4 | x4 | x4 |$ x4 | x4 | x4 | x4 | x4 |$ x4 | x4 | x4 | x4 | x4 | x4 |$ x4 |] %174
V:26
[K:G] z4 | z4 | z4 | z4 |$ z4 | z4 | z4 | z4 | z4 |$ z4 | z4 | z4 | z4 | z4 |$ z4 | z4 | z4 | z4 | %18
 z4 |$ z4 | z4 | z4 | z4 |$ z4 | z4 | z4 | z4 |$ z4 | z4 | z4 | z4 |$ z4 | z4 | z4 | z4 |$ z4 | %36
 z4 | z4 | z4 |$ z4 | z4 | z4 | z4 |$ z4 | z4 | z4 | z4 |$ z4 | z4 | z4 | z4 |$ z4 | z4 | z4 | %54
 z4 |$ z4 | z4 | z4 | z4 | z4 |$ z4 | z4 | z4 | z4 |$ z4 | z4 | z4 | z4 |$ z4 | z4 | z4 | z4 |$ %72
 z4 | z4 | z4 | z4 |$ z4 | z4 | z4 | z4 |$ z4 | z4 | z4 | z4 |$ z4 | z4 | z4 | z4 |$ z4 | z4 | z4 | %91
 z4 |$ z4 | z4 | z4 |$ z4 | z4 | z4 | z4 |$ z4 | z4 | z4 | z4 | z4 |$ z4 | z4 | z4 | z4 |$ z4 | %109
 z4 | z4 |$ z z2 [^abc'^c'd'] | %112
 [^d'e'=f'^f'g'^g'a'^a'] [b'c''^c''d''^d''e''=f''^f''] [_d''=d''_e''=e''^e''f''g''_a''=a''_b''=b''c'''] [^ABc_d=d_e=efg_a=a_b=bc'_d'=d'^d'e'=f'^f'=g'_a'=a'^a'b'=c''] |$ %113
 [A,,,,_B,,,,=B,,,,C,,,^C,,,D,,,^D,,,E,,,=F,,,^F,,,G,,,^G,,,A,,,^A,,,B,,,C,,^C,,D,,^D,,E,,=F,,^F,,G,,_A,,=A,,_B,,=B,,C,^C,D,^D,E,=F,^F,G,_A,=A,_B,=B,C^CD^DE=F^FG_A=A] z z2 | %114
 z4 | z4 | z4 | z4 |$ z4 | z4 | z4 | z4 |$ z4 | z4 | z4 | z4 |$ z4 | z4 |$ z4 | %129
 ^D,,, ^A,,, ^E,,, A,,, |$ F,,, [F,,,^G,,,] [G,,,^A,,,] C,, | %131
 ^D,, [^A,,,D,,] [^E,,F,,] [D,,=F,,^F,,] | [^A,,,^C,,] [^G,,,C,,] [F,,,-A,,,] F,,, |$ %133
 [^D,,,E,,,^E,,,] ^A,,, E,,, A,,, | F,,, [F,,,^G,,,] [G,,,^A,,,] [C,,^C,,^D,,^E,,F,,^G,,^A,,B,,] |$ %135
 ^D,, [^A,,,D,,] [^E,,F,,] [D,,=F,,^F,,] | ^C,, z z2 |$ ^D,,, ^A,,, =F,,, A,,, | %138
 F,,, [F,,,^G,,,] [G,,,^A,,,] z | ^D,, [^A,,,D,,] F,, [D,,F,,] |$ %140
 [^A,,,^C,,] [^G,,,C,,] [F,,,-A,,,] F,,, | [^D,,,E,,,^E,,,] ^A,,, E,,, A,,, |$ %142
 F,,, [F,,,^G,,,] [G,,,^A,,,] [C,,^C,,^D,,=F,,^F,,^G,,^A,,B,,] | z ^A,,, [^E,,F,,] [^D,,E,,F,,] |$ %144
 ^C,, z z2 | x4 | x4 |$ x4 | x4 | x4 | x4 |$ x4 | x4 | x4 | x4 |$ x4 | x4 | x4 | x4 |$ x4 | x4 | %161
 x4 |$ x4 | x4 | x4 | x4 | x4 |$ x4 | x4 | x4 | x4 | x4 | x4 |$ x4 |] %174
